;This Gcode has been generated specifically for the LulzBot Mini
;Basic settings: Layer height: 0.38 Walls: 1 Fill: 80
;Filament Diameter: 2.85
;Nozzle Size: 0.5
G21                          ; metric values
G90                          ; absolute positioning
M82                          ; set extruder to absolute mode
M107                         ; start with the fan off
G92 E0                       ; set extruder position to 0
M140 S60; get bed heating up
G28                          ; home all
M109 S140                    ; set to cleaning temp and wait
G1 Z150 E-30 F75             ; suck up XXmm of filament
M109 S140                    ; heat up rest of way
G1 X45 Y174 F11520           ; move behind scraper
G1 Z0  F1200                 ; CRITICAL: set Z to height of top of scraper
G1 X45 Y174 Z-.5 F4000       ; wiping ; plunge into wipe pad
G1 X55 Y172 Z-.5 F4000       ; wiping
G1 X45 Y174 Z0 F4000         ; wiping
G1 X55 Y172 F4000            ; wiping
G1 X45 Y174 F4000            ; wiping
G1 X55 Y172 F4000            ; wiping
G1 X45 Y174 F4000            ; wiping
G1 X55 Y172 F4000            ; wiping
G1 X60 Y174 F4000            ; wiping
G1 X80 Y172 F4000            ; wiping
G1 X60 Y174 F4000            ; wiping
G1 X80 Y172 F4000            ; wiping
G1 X60 Y174 F4000            ; wiping
G1 X90 Y172 F4000            ; wiping
G1 X80 Y174 F4000            ; wiping
G1 X100 Y172 F4000           ; wiping
G1 X80 Y174 F4000            ; wiping
G1 X100 Y172 F4000           ; wiping
G1 X80 Y174 F4000            ; wiping
G1 X100 Y172 F4000           ; wiping
G1 X110 Y174 F4000           ; wiping
G1 X100 Y172 F4000           ; wiping
G1 X110 Y174 F4000           ; wiping
G1 X100 Y172 F4000           ; wiping
G1 X110 Y174 F4000           ; wiping
G1 X115 Y172 Z-0.5 F1000     ; wipe slower and bury noz in cleanish area
G1 Z10                       ; raise z
G28 X0 Y0                    ; home x and y
M109 S140                    ; set to probing temp
M204 S300                    ; Set probing acceleration
G29                          ; Probe
M204 S2000                   ; Restore standard acceleration
G1 X5 Y15 Z10 F5000          ; get out the way
G4 S1                        ; pause
M400                         ; clear buffer
M109 S205    ; set extruder temp and wait
G4 S15                       ; wait for bed to temp up
G1 Z2 E0 F75                 ; extrude filament back into nozzle
M140 S60; get bed temping up during first layer

;Layer count: 77
;LAYER:0
M107
G0 F10500 X45.215 Y69.738 Z0.425
;TYPE:SKIRT
G1 F900 X61.936 Y69.738 E0.69623
G1 X63.436 Y66.932 E0.82871
G1 X65.914 Y63.914 E0.99131
G1 X68.932 Y61.436 E1.15390
G1 X71.738 Y59.936 E1.28638
G1 X71.738 Y43.215 E1.98261
G1 X88.262 Y43.215 E2.67064
G1 X88.262 Y59.936 E3.36686
G1 X91.068 Y61.436 E3.49935
G1 X94.086 Y63.914 E3.66194
G1 X96.564 Y66.932 E3.82454
G1 X98.064 Y69.738 E3.95702
G1 X114.785 Y69.738 E4.65325
G1 X114.785 Y86.262 E5.34127
G1 X98.064 Y86.262 E6.03750
G1 X96.564 Y89.068 E6.16998
G1 X94.086 Y92.086 E6.33258
G1 X91.068 Y94.564 E6.49517
G1 X88.262 Y96.064 E6.62766
G1 X88.262 Y112.785 E7.32388
G1 X71.738 Y112.785 E8.01191
G1 X71.738 Y96.064 E8.70814
G1 X68.932 Y94.564 E8.84062
G1 X65.914 Y92.086 E9.00321
G1 X63.436 Y89.068 E9.16581
G1 X61.936 Y86.262 E9.29829
G1 X45.215 Y86.262 E9.99452
G1 X45.215 Y69.738 E10.68255
G1 F600 E9.18255
G1 Z0.525
G0 F10500 X49.464 Y73.987
;TYPE:WALL-INNER
G1 Z0.425
G1 F600 E10.68255
G1 F900 X64.939 Y73.987 E11.32689
G1 X65.540 Y72.008 E11.41301
G1 X66.985 Y69.305 E11.54063
G1 X68.933 Y66.933 E11.66843
G1 X71.305 Y64.985 E11.79624
G1 X74.008 Y63.540 E11.92386
G1 X75.987 Y62.939 E12.00997
G1 X75.987 Y47.464 E12.65432
G1 X84.013 Y47.464 E12.98851
G1 X84.013 Y62.939 E13.63285
G1 X85.992 Y63.540 E13.71897
G1 X88.695 Y64.985 E13.84659
G1 X91.067 Y66.933 E13.97440
G1 X93.015 Y69.305 E14.10220
G1 X94.460 Y72.008 E14.22982
G1 X95.061 Y73.987 E14.31594
G1 X110.536 Y73.987 E14.96028
G1 X110.536 Y82.013 E15.29447
G1 X95.061 Y82.013 E15.93882
G1 X94.460 Y83.992 E16.02493
G1 X93.015 Y86.695 E16.15255
G1 X91.067 Y89.067 E16.28036
G1 X88.695 Y91.015 E16.40816
G1 X85.992 Y92.460 E16.53578
G1 X84.013 Y93.061 E16.62190
G1 X84.013 Y108.536 E17.26624
G1 X75.987 Y108.536 E17.60043
G1 X75.987 Y93.061 E18.24478
G1 X74.008 Y92.460 E18.33090
G1 X71.305 Y91.015 E18.45852
G1 X68.933 Y89.067 E18.58632
G1 X66.985 Y86.695 E18.71412
G1 X65.540 Y83.992 E18.84174
G1 X64.939 Y82.013 E18.92786
G1 X49.464 Y82.013 E19.57221
G1 X49.464 Y73.987 E19.90639
G0 F10500 X48.839 Y73.362
;TYPE:WALL-OUTER
G1 F900 X64.475 Y73.362 E20.55744
G1 X64.960 Y71.767 E20.62686
G1 X66.463 Y68.955 E20.75962
G1 X68.489 Y66.489 E20.89251
G1 X70.955 Y64.463 E21.02540
G1 X73.767 Y62.960 E21.15816
G1 X75.362 Y62.475 E21.22757
G1 X75.362 Y46.839 E21.87862
G1 X84.638 Y46.839 E22.26486
G1 X84.638 Y62.475 E22.91591
G1 X86.233 Y62.960 E22.98532
G1 X89.045 Y64.463 E23.11809
G1 X91.511 Y66.489 E23.25097
G1 X93.537 Y68.955 E23.38386
G1 X95.040 Y71.767 E23.51662
G1 X95.525 Y73.362 E23.58604
G1 X111.161 Y73.362 E24.23709
G1 X111.161 Y82.638 E24.62332
G1 X95.525 Y82.638 E25.27438
G1 X95.040 Y84.233 E25.34379
G1 X93.537 Y87.045 E25.47655
G1 X91.511 Y89.511 E25.60944
G1 X89.045 Y91.537 E25.74233
G1 X86.233 Y93.040 E25.87509
G1 X84.638 Y93.525 E25.94451
G1 X84.638 Y109.161 E26.59556
G1 X75.362 Y109.161 E26.98179
G1 X75.362 Y93.525 E27.63284
G1 X73.767 Y93.040 E27.70226
G1 X70.955 Y91.537 E27.83502
G1 X68.489 Y89.511 E27.96791
G1 X66.463 Y87.045 E28.10079
G1 X64.960 Y84.233 E28.23356
G1 X64.475 Y82.638 E28.30297
G1 X48.839 Y82.638 E28.95402
G1 X48.839 Y73.362 E29.34026
G0 F10500 X49.897 Y74.205
;TYPE:SKIN
G1 F900 X57.485 Y81.793 E29.78707
G0 F10500 X56.601 Y81.793
G1 F900 X49.682 Y74.874 E30.19450
G0 F10500 X49.682 Y75.758
G1 F900 X55.717 Y81.793 E30.54987
G0 F10500 X54.834 Y81.793
G1 F900 X49.682 Y76.641 E30.85325
G0 F10500 X49.682 Y77.525
G1 F900 X53.950 Y81.793 E31.10457
G0 F10500 X53.066 Y81.793
G1 F900 X49.682 Y78.409 E31.30383
G0 F10500 X49.682 Y79.293
G1 F900 X52.182 Y81.793 E31.45105
G0 F10500 X51.298 Y81.793
G1 F900 X49.682 Y80.177 E31.54620
G0 F10500 X49.682 Y81.061
G1 F900 X50.414 Y81.793 E31.58931
G0 F10500 X50.781 Y74.205
G1 F900 X58.369 Y81.793 E32.03613
G0 F10500 X59.253 Y81.793
G1 F900 X51.665 Y74.205 E32.48295
G0 F10500 X52.549 Y74.205
G1 F900 X60.137 Y81.793 E32.92976
G0 F10500 X61.021 Y81.793
G1 F900 X53.433 Y74.205 E33.37658
G0 F10500 X54.317 Y74.205
G1 F900 X61.905 Y81.793 E33.82340
G0 F10500 X62.788 Y81.793
G1 F900 X55.200 Y74.205 E34.27022
G0 F10500 X56.084 Y74.205
G1 F900 X63.672 Y81.793 E34.71704
G0 F10500 X64.556 Y81.793
G1 F900 X56.968 Y74.205 E35.16386
G0 F10500 X57.852 Y74.205
G1 F900 X83.793 Y100.146 E36.69139
G0 F10500 X83.793 Y101.030
G1 F900 X76.206 Y93.442 E37.13818
G0 F10500 X76.206 Y94.326
G1 F900 X83.793 Y101.913 E37.58494
G0 F10500 X83.793 Y102.797
G1 F900 X76.206 Y95.210 E38.03170
G0 F10500 X76.206 Y96.094
G1 F900 X83.793 Y103.681 E38.47846
G0 F10500 X83.793 Y104.565
G1 F900 X76.206 Y96.978 E38.92522
G0 F10500 X76.206 Y97.862
G1 F900 X83.793 Y105.449 E39.37198
G0 F10500 X83.793 Y106.333
G1 F900 X76.206 Y98.746 E39.81874
G0 F10500 X76.206 Y99.629
G1 F900 X83.793 Y107.217 E40.26553
G0 F10500 X83.793 Y108.101
G1 F900 X76.206 Y100.513 E40.71232
G0 F10500 X76.206 Y101.397
G1 F900 X83.124 Y108.316 E41.11972
G0 F10500 X82.240 Y108.316
G1 F900 X76.206 Y102.281 E41.47506
G0 F10500 X76.206 Y103.165
G1 F900 X81.356 Y108.316 E41.77835
G0 F10500 X80.472 Y108.316
G1 F900 X76.206 Y104.049 E42.02958
G0 F10500 X76.206 Y104.933
G1 F900 X79.589 Y108.316 E42.22879
G0 F10500 X78.705 Y108.316
G1 F900 X76.206 Y105.817 E42.37594
G0 F10500 X76.206 Y106.700
G1 F900 X77.821 Y108.316 E42.47107
G0 F10500 X76.937 Y108.316
G1 F900 X76.206 Y107.584 E42.51414
G0 F10500 X83.793 Y99.262
G1 F900 X58.736 Y74.205 E43.98962
G0 F10500 X59.620 Y74.205
G1 F900 X83.793 Y98.378 E45.41305
G0 F10500 X83.793 Y97.494
G1 F900 X60.504 Y74.205 E46.78442
G0 F10500 X61.388 Y74.205
G1 F900 X83.793 Y96.610 E48.10374
G0 F10500 X83.793 Y95.726
G1 F900 X62.272 Y74.205 E49.37100
G0 F10500 X63.155 Y74.205
G1 F900 X83.793 Y94.842 E50.58624
G0 F10500 X83.793 Y93.958
G1 F900 X64.039 Y74.205 E51.74943
G0 F10500 X64.923 Y74.205
G1 F900 X83.793 Y93.075 E52.86058
G0 F10500 X84.335 Y92.732
G1 F900 X65.265 Y73.662 E53.98352
G0 F10500 X65.471 Y72.985
G1 F900 X85.013 Y92.527 E55.13425
G0 F10500 X85.690 Y92.320
G1 F900 X65.678 Y72.308 E56.31266
G0 F10500 X65.952 Y71.698
G1 F900 X86.300 Y92.046 E57.51085
G0 F10500 X86.875 Y91.737
G1 F900 X66.260 Y71.122 E58.72476
G0 F10500 X66.568 Y70.546
G1 F900 X87.452 Y91.430 E59.95451
G0 F10500 X88.027 Y91.122
G1 F900 X66.876 Y69.971 E61.19999
G0 F10500 X67.189 Y69.399
G1 F900 X88.599 Y90.809 E62.46072
G0 F10500 X89.084 Y90.410
G1 F900 X67.588 Y68.914 E63.72651
G0 F10500 X67.986 Y68.429
G1 F900 X89.569 Y90.011 E64.99739
G0 F10500 X90.054 Y89.613
G1 F900 X68.385 Y67.943 E66.27340
G0 F10500 X68.783 Y67.458
G1 F900 X90.540 Y89.214 E67.55453
G0 F10500 X91.005 Y88.796
G1 F900 X69.203 Y66.994 E68.83834
G0 F10500 X69.688 Y66.596
G1 F900 X91.404 Y88.311 E70.11706
G0 F10500 X91.802 Y87.826
G1 F900 X70.173 Y66.197 E71.39068
G0 F10500 X70.659 Y65.799
G1 F900 X92.201 Y87.340 E72.65915
G0 F10500 X92.599 Y86.855
G1 F900 X71.144 Y65.400 E73.92253
G0 F10500 X71.667 Y65.038
G1 F900 X92.961 Y86.332 E75.17642
G0 F10500 X93.268 Y85.756
G1 F900 X72.243 Y64.731 E76.41448
G0 F10500 X72.819 Y64.423
G1 F900 X93.576 Y85.180 E77.63675
G0 F10500 X93.884 Y84.604
G1 F900 X73.395 Y64.115 E78.84325
G0 F10500 X73.971 Y63.807
G1 F900 X94.192 Y84.028 E80.03396
G0 F10500 X94.419 Y83.371
G1 F900 X74.628 Y63.580 E81.19935
G0 F10500 X75.306 Y63.374
G1 F900 X94.625 Y82.693 E82.33695
G0 F10500 X94.830 Y82.015
G1 F900 X75.984 Y63.168 E83.44673
G0 F10500 X76.204 Y62.505
G1 F900 X95.493 Y81.793 E84.58253
G0 F10500 X96.377 Y81.793
G1 F900 X76.204 Y61.621 E85.77038
G0 F10500 X76.204 Y60.737
G1 F900 X97.261 Y81.793 E87.01030
G0 F10500 X98.145 Y81.793
G1 F900 X76.204 Y59.853 E88.30226
G0 F10500 X76.204 Y58.969
G1 F900 X99.028 Y81.793 E89.64625
G0 F10500 X99.912 Y81.793
G1 F900 X76.204 Y58.085 E91.04230
G0 F10500 X76.204 Y57.202
G1 F900 X100.796 Y81.793 E92.49036
G0 F10500 X101.680 Y81.793
G1 F900 X76.204 Y56.318 E93.99049
G0 F10500 X76.204 Y55.434
G1 F900 X83.793 Y63.023 E94.43737
G0 F10500 X83.905 Y63.135
G1 F900 X94.864 Y74.094 E95.08269
G0 F10500 X94.976 Y74.205
G1 F900 X102.564 Y81.793 E95.52951
G0 F10500 X103.448 Y81.793
G1 F900 X95.860 Y74.205 E95.97632
G0 F10500 X96.744 Y74.205
G1 F900 X104.332 Y81.793 E96.42314
G0 F10500 X105.216 Y81.793
G1 F900 X97.628 Y74.205 E96.86996
G0 F10500 X98.511 Y74.205
G1 F900 X106.099 Y81.793 E97.31678
G0 F10500 X106.983 Y81.793
G1 F900 X99.395 Y74.205 E97.76360
G0 F10500 X95.174 Y73.835
G0 X94.477 Y72.823
G1 F900 X85.176 Y63.522 E98.31129
G0 F10500 X86.712 Y64.174
G1 F900 X93.825 Y71.286 E98.73011
G0 F10500 X92.747 Y69.325
G1 F900 X88.674 Y65.251 E98.96998
G0 F10500 X84.165 Y62.826
G0 X83.793 Y62.139
G1 F900 X76.204 Y54.550 E99.41685
G0 F10500 X76.204 Y53.666
G1 F900 X83.793 Y61.255 E99.86373
G0 F10500 X83.793 Y60.371
G1 F900 X76.204 Y52.782 E100.31061
G0 F10500 X76.204 Y51.898
G1 F900 X83.793 Y59.487 E100.75749
G0 F10500 X83.793 Y58.603
G1 F900 X76.204 Y51.014 E101.20437
G0 F10500 X76.204 Y50.131
G1 F900 X83.793 Y57.719 E101.65121
G0 F10500 X83.793 Y56.835
G1 F900 X76.204 Y49.247 E102.09806
G0 F10500 X76.204 Y48.363
G1 F900 X83.793 Y55.951 E102.54491
G0 F10500 X83.793 Y55.068
G1 F900 X76.408 Y47.683 E102.97978
G0 F10500 X77.292 Y47.683
G1 F900 X83.793 Y54.184 E103.36259
G0 F10500 X83.793 Y53.300
G1 F900 X78.176 Y47.683 E103.69335
G0 F10500 X79.060 Y47.683
G1 F900 X83.793 Y52.416 E103.97205
G0 F10500 X83.793 Y51.532
G1 F900 X79.944 Y47.683 E104.19870
G0 F10500 X80.827 Y47.683
G1 F900 X83.793 Y50.648 E104.37332
G0 F10500 X83.793 Y49.764
G1 F900 X81.711 Y47.683 E104.49589
G0 F10500 X82.595 Y47.683
G1 F900 X83.793 Y48.880 E104.56640
G0 F10500 X83.793 Y47.996
G1 F900 X83.479 Y47.683 E104.58486
G0 F10500 X84.165 Y62.826
G0 X95.174 Y73.835
G0 X100.279 Y74.205
G1 F900 X107.867 Y81.793 E105.03168
G0 F10500 X108.751 Y81.793
G1 F900 X101.163 Y74.205 E105.47850
G0 F10500 X102.047 Y74.205
G1 F900 X109.635 Y81.793 E105.92532
G0 F10500 X110.316 Y81.590
G1 F900 X102.931 Y74.205 E106.36019
G0 F10500 X103.815 Y74.205
G1 F900 X110.316 Y80.707 E106.74303
G0 F10500 X110.316 Y79.823
G1 F900 X104.699 Y74.205 E107.07381
G0 F10500 X105.583 Y74.205
G1 F900 X110.316 Y78.939 E107.35254
G0 F10500 X110.316 Y78.055
G1 F900 X106.466 Y74.205 E107.57925
G0 F10500 X107.350 Y74.205
G1 F900 X110.316 Y77.171 E107.75390
G0 F10500 X110.316 Y76.287
G1 F900 X108.234 Y74.205 E107.87650
G0 F10500 X109.118 Y74.205
G1 F900 X110.316 Y75.403 E107.94705
G0 F10500 X110.316 Y74.519
G1 F900 X110.002 Y74.205 E107.96554
G0 F10500 X75.423 Y92.659
G1 F900 X65.338 Y82.575 E108.55936
G0 F10500 X65.724 Y83.845
G1 F900 X74.152 Y92.273 E109.05564
G0 F10500 X72.286 Y91.291
G1 F900 X66.707 Y85.711 E109.38419
;LAYER:1
M106 S191
G0 F10500 X66.828 Y86.798 Z0.805
;TYPE:WALL-INNER
G1 F1140 X65.366 Y84.064 E109.47653
G1 X64.800 Y82.200 E109.53455
G1 X49.277 Y82.200 E109.99688
G1 X49.277 Y73.800 E110.24706
G1 X64.800 Y73.800 E110.70939
G1 X65.366 Y71.936 E110.76741
G1 X66.828 Y69.202 E110.85975
G1 X68.800 Y66.800 E110.95231
G1 X71.202 Y64.828 E111.04487
G1 X73.936 Y63.366 E111.13721
G1 X75.800 Y62.800 E111.19522
G1 X75.800 Y47.277 E111.65755
G1 X84.200 Y47.277 E111.90773
G1 X84.200 Y62.800 E112.37006
G1 X86.064 Y63.366 E112.42808
G1 X88.798 Y64.828 E112.52042
G1 X91.200 Y66.800 E112.61298
G1 X93.172 Y69.202 E112.70554
G1 X94.634 Y71.936 E112.79788
G1 X95.200 Y73.800 E112.85590
G1 X110.723 Y73.800 E113.31822
G1 X110.723 Y82.200 E113.56841
G1 X95.200 Y82.200 E114.03073
G1 X94.634 Y84.064 E114.08875
G1 X93.172 Y86.798 E114.18109
G1 X91.200 Y89.200 E114.27365
G1 X88.798 Y91.172 E114.36621
G1 X86.064 Y92.634 E114.45855
G1 X84.200 Y93.200 E114.51657
G1 X84.200 Y108.723 E114.97890
G1 X75.800 Y108.723 E115.22908
G1 X75.800 Y93.200 E115.69141
G1 X73.936 Y92.634 E115.74942
G1 X71.202 Y91.172 E115.84176
G1 X68.800 Y89.200 E115.93432
G1 X66.828 Y86.798 E116.02689
G0 F10500 X66.411 Y87.078
;TYPE:WALL-OUTER
G1 F1080 X64.901 Y84.255 E116.12224
G1 X64.429 Y82.700 E116.17064
G1 X48.777 Y82.700 E116.63680
G1 X48.777 Y73.300 E116.91677
G1 X64.429 Y73.300 E117.38294
G1 X64.901 Y71.745 E117.43134
G1 X66.411 Y68.922 E117.52669
G1 X68.445 Y66.445 E117.62215
G1 X70.922 Y64.411 E117.71761
G1 X73.745 Y62.901 E117.81296
G1 X75.300 Y62.429 E117.86136
G1 X75.300 Y46.777 E118.32753
G1 X84.700 Y46.777 E118.60749
G1 X84.700 Y62.429 E119.07366
G1 X86.255 Y62.901 E119.12206
G1 X89.078 Y64.411 E119.21741
G1 X91.555 Y66.445 E119.31287
G1 X93.589 Y68.922 E119.40833
G1 X95.099 Y71.745 E119.50368
G1 X95.571 Y73.300 E119.55208
G1 X111.223 Y73.300 E120.01825
G1 X111.223 Y82.700 E120.29821
G1 X95.571 Y82.700 E120.76438
G1 X95.099 Y84.255 E120.81278
G1 X93.589 Y87.078 E120.90813
G1 X91.555 Y89.555 E121.00359
G1 X89.078 Y91.589 E121.09905
G1 X86.255 Y93.099 E121.19440
G1 X84.700 Y93.571 E121.24280
G1 X84.700 Y109.223 E121.70897
G1 X75.300 Y109.223 E121.98893
G1 X75.300 Y93.571 E122.45510
G1 X73.745 Y93.099 E122.50350
G1 X70.922 Y91.589 E122.59885
G1 X68.445 Y89.555 E122.69431
G1 X66.411 Y87.078 E122.78977
G0 F10500 X67.029 Y86.766
;TYPE:SKIN
G1 F1380 X88.766 Y65.029 E123.70533
G0 F10500 X89.154 Y65.347
G1 F1380 X67.348 Y87.154 E124.62382
G0 F10500 X67.667 Y87.542
G1 F1380 X89.543 Y65.666 E125.54524
G0 F10500 X89.931 Y65.985
G1 F1380 X67.986 Y87.930 E126.46957
G0 F10500 X68.305 Y88.319
G1 F1380 X90.319 Y66.304 E127.39682
G0 F10500 X90.707 Y66.623
G1 F1380 X68.624 Y88.707 E128.32698
G0 F10500 X68.945 Y89.092
G1 F1380 X91.091 Y66.946 E129.25977
G0 F10500 X91.410 Y67.334
G1 F1380 X69.333 Y89.411 E130.18965
G0 F10500 X69.722 Y89.730
G1 F1380 X91.729 Y67.723 E131.11659
G0 F10500 X92.048 Y68.111
G1 F1380 X70.110 Y90.049 E132.04062
G0 F10500 X70.498 Y90.368
G1 F1380 X92.367 Y68.499 E132.96174
G0 F10500 X92.686 Y68.887
G1 F1380 X70.886 Y90.687 E133.87996
G0 F10500 X71.274 Y91.006
G1 F1380 X93.005 Y69.275 E134.79527
G0 F10500 X93.256 Y69.732
G1 F1380 X71.731 Y91.257 E135.70191
G0 F10500 X72.191 Y91.503
G1 F1380 X93.502 Y70.192 E136.59953
G0 F10500 X93.748 Y70.653
G1 F1380 X72.652 Y91.749 E137.48809
G0 F10500 X73.112 Y91.996
G1 F1380 X93.995 Y71.113 E138.36768
G0 F10500 X94.241 Y71.574
G1 F1380 X73.573 Y92.242 E139.23822
G0 F10500 X74.040 Y92.483
G1 F1380 X94.482 Y72.041 E140.09924
G0 F10500 X94.646 Y72.583
G1 F1380 X74.582 Y92.647 E140.94434
G0 F10500 X75.125 Y92.812
G1 F1380 X94.811 Y73.126 E141.77351
G0 F10500 X94.977 Y73.667
G1 F1380 X75.667 Y92.977 E142.58685
G0 F10500 X75.975 Y93.376
G1 F1380 X95.377 Y73.974 E143.40406
G0 F10500 X96.084 Y73.974
G1 F1380 X75.975 Y94.084 E144.25108
G0 F10500 X75.975 Y94.791
G1 F1380 X96.791 Y73.974 E145.12787
G0 F10500 X97.498 Y73.974
G1 F1380 X75.975 Y95.498 E146.03444
G0 F10500 X75.975 Y96.205
G1 F1380 X98.205 Y73.974 E146.97079
G0 F10500 X98.912 Y73.974
G1 F1380 X75.975 Y96.912 E147.93692
G0 F10500 X75.975 Y97.619
G1 F1380 X99.620 Y73.974 E148.93285
G0 F10500 X95.266 Y73.710
G0 X88.319 Y64.769
G1 F1380 X66.769 Y86.318 E149.84052
G0 F10500 X66.523 Y85.857
G1 F1380 X87.858 Y64.523 E150.73913
G0 F10500 X87.397 Y64.276
G1 F1380 X66.277 Y85.397 E151.62872
G0 F10500 X66.031 Y84.936
G1 F1380 X86.936 Y64.030 E152.50926
G0 F10500 X86.476 Y63.783
G1 F1380 X65.784 Y84.475 E153.38081
G0 F10500 X65.537 Y84.015
G1 F1380 X86.016 Y63.537 E154.24337
G0 F10500 X85.476 Y63.369
G1 F1380 X65.369 Y83.476 E155.09028
G0 F10500 X65.205 Y82.933
G1 F1380 X84.934 Y63.204 E155.92126
G0 F10500 X84.391 Y63.039
G1 F1380 X65.041 Y82.390 E156.73631
G0 F10500 X64.700 Y82.024
G1 F1380 X84.024 Y62.699 E157.55026
G0 F10500 X84.024 Y61.992
G1 F1380 X63.993 Y82.024 E158.39398
G0 F10500 X63.286 Y82.024
G1 F1380 X84.024 Y61.285 E159.26749
G0 F10500 X84.024 Y60.578
G1 F1380 X62.578 Y82.024 E160.17080
G0 F10500 X61.871 Y82.024
G1 F1380 X84.024 Y59.871 E161.10388
G0 F10500 X84.024 Y59.164
G1 F1380 X61.164 Y82.024 E162.06675
G0 F10500 X60.457 Y82.024
G1 F1380 X84.024 Y58.457 E163.05939
G0 F10500 X84.024 Y57.750
G1 F1380 X59.750 Y82.024 E164.08181
G0 F10500 X59.043 Y82.024
G1 F1380 X84.024 Y57.043 E165.13402
G0 F10500 X84.024 Y56.335
G1 F1380 X58.336 Y82.024 E166.21602
G0 F10500 X57.629 Y82.024
G1 F1380 X84.024 Y55.628 E167.32780
G0 F10500 X84.024 Y54.921
G1 F1380 X56.922 Y82.024 E168.46936
G0 F10500 X56.214 Y82.024
G1 F1380 X64.265 Y73.973 E168.80846
G0 F10500 X63.558 Y73.973
G1 F1380 X55.507 Y82.024 E169.14757
G0 F10500 X54.800 Y82.024
G1 F1380 X62.851 Y73.973 E169.48668
G0 F10500 X62.144 Y73.973
G1 F1380 X54.093 Y82.024 E169.82579
G0 F10500 X53.386 Y82.024
G1 F1380 X61.436 Y73.973 E170.16488
G0 F10500 X60.729 Y73.973
G1 F1380 X52.679 Y82.024 E170.50396
G0 F10500 X51.972 Y82.024
G1 F1380 X60.022 Y73.973 E170.84305
G0 F10500 X64.734 Y73.710
G0 X65.218 Y73.020
G1 F1380 X75.021 Y63.218 E171.25593
G0 F10500 X74.005 Y63.526
G1 F1380 X65.527 Y72.004 E171.61303
G0 F10500 X66.338 Y70.486
G1 F1380 X72.486 Y64.338 E171.87198
G0 F10500 X70.429 Y65.688
G1 F1380 X67.688 Y68.429 E171.98743
G0 F10500 X75.710 Y62.734
G0 X75.974 Y62.264
G1 F1380 X84.024 Y54.214 E172.32650
G0 F10500 X84.024 Y53.507
G1 F1380 X75.974 Y61.557 E172.66557
G0 F10500 X75.974 Y60.850
G1 F1380 X84.024 Y52.800 E173.00463
G0 F10500 X84.024 Y52.093
G1 F1380 X75.974 Y60.143 E173.34370
G0 F10500 X75.974 Y59.436
G1 F1380 X84.024 Y51.386 E173.68277
G0 F10500 X84.024 Y50.679
G1 F1380 X75.974 Y58.729 E174.02183
G0 F10500 X75.974 Y58.022
G1 F1380 X84.024 Y49.971 E174.36092
G0 F10500 X84.024 Y49.264
G1 F1380 X75.974 Y57.315 E174.70001
G0 F10500 X75.974 Y56.608
G1 F1380 X84.024 Y48.557 E175.03910
G0 F10500 X84.024 Y47.850
G1 F1380 X75.974 Y55.901 E175.37818
G0 F10500 X75.974 Y55.193
G1 F1380 X83.716 Y47.451 E175.70428
G0 F10500 X83.009 Y47.451
G1 F1380 X75.974 Y54.486 E176.00059
G0 F10500 X75.974 Y53.779
G1 F1380 X82.302 Y47.451 E176.26713
G0 F10500 X81.595 Y47.451
G1 F1380 X75.974 Y53.072 E176.50388
G0 F10500 X75.974 Y52.365
G1 F1380 X80.888 Y47.451 E176.71086
G0 F10500 X80.180 Y47.451
G1 F1380 X75.974 Y51.658 E176.88804
G0 F10500 X75.974 Y50.951
G1 F1380 X79.473 Y47.451 E177.03544
G0 F10500 X78.766 Y47.451
G1 F1380 X75.974 Y50.244 E177.15306
G0 F10500 X75.974 Y49.537
G1 F1380 X78.059 Y47.451 E177.24090
G0 F10500 X77.352 Y47.451
G1 F1380 X75.974 Y48.829 E177.29894
G0 F10500 X75.974 Y48.122
G1 F1380 X76.645 Y47.451 E177.32720
G0 F10500 X75.710 Y62.734
G0 X64.734 Y73.710
G0 X59.315 Y73.973
G1 F1380 X51.265 Y82.024 E177.66629
G0 F10500 X50.558 Y82.024
G1 F1380 X58.608 Y73.973 E178.00538
G0 F10500 X57.901 Y73.973
G1 F1380 X49.851 Y82.024 E178.34447
G0 F10500 X49.452 Y81.716
G1 F1380 X57.194 Y73.973 E178.67058
G0 F10500 X56.487 Y73.973
G1 F1380 X49.452 Y81.008 E178.96690
G0 F10500 X49.452 Y80.301
G1 F1380 X55.780 Y73.973 E179.23343
G0 F10500 X55.073 Y73.973
G1 F1380 X49.452 Y79.594 E179.47019
G0 F10500 X49.452 Y78.887
G1 F1380 X54.365 Y73.973 E179.67715
G0 F10500 X53.658 Y73.973
G1 F1380 X49.452 Y78.180 E179.85432
G0 F10500 X49.452 Y77.473
G1 F1380 X52.951 Y73.973 E180.00172
G0 F10500 X52.244 Y73.973
G1 F1380 X49.452 Y76.766 E180.11934
G0 F10500 X49.452 Y76.059
G1 F1380 X51.537 Y73.973 E180.20718
G0 F10500 X50.830 Y73.973
G1 F1380 X49.452 Y75.352 E180.26525
G0 F10500 X49.452 Y74.645
G1 F1380 X50.123 Y73.973 E180.29353
G0 F10500 X64.734 Y82.290
G0 X75.710 Y93.266
G0 X75.975 Y98.326
G1 F1380 X100.327 Y73.974 E181.31924
G0 F10500 X101.034 Y73.974
G1 F1380 X75.975 Y99.033 E182.37473
G0 F10500 X75.975 Y99.740
G1 F1380 X101.741 Y73.974 E183.45999
G0 F10500 X102.448 Y73.974
G1 F1380 X75.975 Y100.448 E184.57506
G0 F10500 X75.975 Y101.155
G1 F1380 X84.024 Y93.105 E184.91410
G0 F10500 X84.074 Y93.055
G1 F1380 X95.054 Y82.076 E185.37656
G0 F10500 X95.105 Y82.025
G1 F1380 X103.155 Y73.974 E185.71565
G0 F10500 X103.862 Y73.974
G1 F1380 X95.812 Y82.025 E186.05473
G0 F10500 X96.519 Y82.025
G1 F1380 X104.569 Y73.974 E186.39382
G0 F10500 X105.276 Y73.974
G1 F1380 X97.226 Y82.025 E186.73291
G0 F10500 X97.933 Y82.025
G1 F1380 X105.983 Y73.974 E187.07200
G0 F10500 X106.691 Y73.974
G1 F1380 X98.640 Y82.025 E187.41111
G0 F10500 X99.347 Y82.025
G1 F1380 X107.398 Y73.974 E187.75021
G0 F10500 X108.105 Y73.974
G1 F1380 X100.054 Y82.025 E188.08932
G0 F10500 X100.762 Y82.025
G1 F1380 X108.812 Y73.974 E188.42841
G0 F10500 X109.519 Y73.974
G1 F1380 X101.469 Y82.025 E188.76750
G0 F10500 X102.176 Y82.025
G1 F1380 X110.226 Y73.974 E189.10658
G0 F10500 X110.546 Y74.361
G1 F1380 X102.883 Y82.025 E189.42937
G0 F10500 X103.590 Y82.025
G1 F1380 X110.546 Y75.068 E189.72238
G0 F10500 X110.546 Y75.775
G1 F1380 X104.297 Y82.025 E189.98561
G0 F10500 X105.004 Y82.025
G1 F1380 X110.546 Y76.482 E190.21906
G0 F10500 X110.546 Y77.189
G1 F1380 X105.711 Y82.025 E190.42273
G0 F10500 X106.418 Y82.025
G1 F1380 X110.546 Y77.897 E190.59660
G0 F10500 X110.546 Y78.604
G1 F1380 X107.125 Y82.025 E190.74070
G0 F10500 X107.833 Y82.025
G1 F1380 X110.546 Y79.311 E190.85499
G0 F10500 X110.546 Y80.018
G1 F1380 X108.540 Y82.025 E190.93950
G0 F10500 X109.247 Y82.025
G1 F1380 X110.546 Y80.725 E190.99424
G0 F10500 X110.546 Y81.432
G1 F1380 X109.954 Y82.025 E191.01919
G0 F10500 X95.266 Y82.290
G0 X94.746 Y83.090
G1 F1380 X85.090 Y92.746 E191.42591
G0 F10500 X86.158 Y92.385
G1 F1380 X94.385 Y84.159 E191.77241
G0 F10500 X93.571 Y85.680
G1 F1380 X87.679 Y91.571 E192.02056
G0 F10500 X90.005 Y89.953
G1 F1380 X91.952 Y88.005 E192.10258
G0 F10500 X84.290 Y93.266
G0 X84.024 Y93.812
G1 F1380 X75.975 Y101.862 E192.44163
G0 F10500 X75.975 Y102.569
G1 F1380 X84.024 Y94.519 E192.78068
G0 F10500 X84.024 Y95.226
G1 F1380 X75.975 Y103.276 E193.11972
G0 F10500 X75.975 Y103.983
G1 F1380 X84.024 Y95.933 E193.45877
G0 F10500 X84.024 Y96.640
G1 F1380 X75.975 Y104.690 E193.79781
G0 F10500 X75.975 Y105.397
G1 F1380 X84.024 Y97.348 E194.13684
G0 F10500 X84.024 Y98.055
G1 F1380 X75.975 Y106.104 E194.47586
G0 F10500 X75.975 Y106.812
G1 F1380 X84.024 Y98.762 E194.81491
G0 F10500 X84.024 Y99.469
G1 F1380 X75.975 Y107.519 E195.15395
G0 F10500 X75.975 Y108.226
G1 F1380 X84.024 Y100.176 E195.49300
G0 F10500 X84.024 Y100.883
G1 F1380 X76.361 Y108.547 E195.81578
G0 F10500 X77.068 Y108.547
G1 F1380 X84.024 Y101.590 E196.10879
G0 F10500 X84.024 Y102.297
G1 F1380 X77.775 Y108.547 E196.37202
G0 F10500 X78.482 Y108.547
G1 F1380 X84.024 Y103.004 E196.60547
G0 F10500 X84.024 Y103.712
G1 F1380 X79.189 Y108.547 E196.80912
G0 F10500 X79.896 Y108.547
G1 F1380 X84.024 Y104.419 E196.98299
G0 F10500 X84.024 Y105.126
G1 F1380 X80.603 Y108.547 E197.12709
G0 F10500 X81.310 Y108.547
G1 F1380 X84.024 Y105.833 E197.24140
G0 F10500 X84.024 Y106.540
G1 F1380 X82.018 Y108.547 E197.32591
G0 F10500 X82.725 Y108.547
G1 F1380 X84.024 Y107.247 E197.38065
G0 F10500 X84.024 Y107.954
G1 F1380 X83.432 Y108.547 E197.40561
;LAYER:2
G0 F10500 X84.200 Y108.723 Z1.185
;TYPE:WALL-INNER
G1 F1440 X75.800 Y108.723 E197.65579
G1 X75.800 Y93.200 E198.11811
G1 X73.936 Y92.634 E198.17613
G1 X71.202 Y91.172 E198.26847
G1 X68.800 Y89.200 E198.36103
G1 X66.828 Y86.798 E198.45359
G1 X65.366 Y84.064 E198.54593
G1 X64.800 Y82.200 E198.60395
G1 X49.277 Y82.200 E199.06628
G1 X49.277 Y73.800 E199.31646
G1 X64.800 Y73.800 E199.77879
G1 X65.366 Y71.936 E199.83681
G1 X66.828 Y69.202 E199.92915
G1 X68.800 Y66.800 E200.02171
G1 X71.202 Y64.828 E200.11427
G1 X73.936 Y63.366 E200.20661
G1 X75.800 Y62.800 E200.26462
G1 X75.800 Y47.277 E200.72695
G1 X84.200 Y47.277 E200.97713
G1 X84.200 Y62.800 E201.43946
G1 X86.064 Y63.366 E201.49748
G1 X88.798 Y64.828 E201.58982
G1 X91.200 Y66.800 E201.68238
G1 X93.172 Y69.202 E201.77494
G1 X94.634 Y71.936 E201.86728
G1 X95.200 Y73.800 E201.92530
G1 X110.723 Y73.800 E202.38762
G1 X110.723 Y82.200 E202.63781
G1 X95.200 Y82.200 E203.10013
G1 X94.634 Y84.064 E203.15815
G1 X93.172 Y86.798 E203.25049
G1 X91.200 Y89.200 E203.34305
G1 X88.798 Y91.172 E203.43561
G1 X86.064 Y92.634 E203.52795
G1 X84.200 Y93.200 E203.58597
G1 X84.200 Y108.723 E204.04830
G0 F10500 X84.700 Y109.223
;TYPE:WALL-OUTER
G1 F1320 X75.300 Y109.223 E204.32826
G1 X75.300 Y93.571 E204.79443
G1 X73.745 Y93.099 E204.84283
G1 X70.922 Y91.589 E204.93818
G1 X68.445 Y89.555 E205.03364
G1 X66.411 Y87.078 E205.12910
G1 X64.901 Y84.255 E205.22445
G1 X64.429 Y82.700 E205.27285
G1 X48.777 Y82.700 E205.73902
G1 X48.777 Y73.300 E206.01898
G1 X64.429 Y73.300 E206.48515
G1 X64.901 Y71.745 E206.53355
G1 X66.411 Y68.922 E206.62890
G1 X68.445 Y66.445 E206.72436
G1 X70.922 Y64.411 E206.81982
G1 X73.745 Y62.901 E206.91517
G1 X75.300 Y62.429 E206.96357
G1 X75.300 Y46.777 E207.42974
G1 X84.700 Y46.777 E207.70970
G1 X84.700 Y62.429 E208.17587
G1 X86.255 Y62.901 E208.22427
G1 X89.078 Y64.411 E208.31962
G1 X91.555 Y66.445 E208.41508
G1 X93.589 Y68.922 E208.51054
G1 X95.099 Y71.745 E208.60589
G1 X95.571 Y73.300 E208.65429
G1 X111.223 Y73.300 E209.12046
G1 X111.223 Y82.700 E209.40042
G1 X95.571 Y82.700 E209.86659
G1 X95.099 Y84.255 E209.91499
G1 X93.589 Y87.078 E210.01034
G1 X91.555 Y89.555 E210.10580
G1 X89.078 Y91.589 E210.20126
G1 X86.255 Y93.099 E210.29661
G1 X84.700 Y93.571 E210.34501
G1 X84.700 Y109.223 E210.81118
G0 F10500 X84.024 Y108.419
;TYPE:SKIN
G1 F1920 X75.975 Y100.370 E211.15021
G0 F10500 X75.975 Y101.077
G1 F1920 X83.444 Y108.547 E211.46482
G0 F10500 X82.737 Y108.547
G1 F1920 X75.975 Y101.784 E211.74966
G0 F10500 X75.975 Y102.491
G1 F1920 X82.030 Y108.547 E212.00472
G0 F10500 X81.323 Y108.547
G1 F1920 X75.975 Y103.198 E212.23000
G0 F10500 X75.975 Y103.905
G1 F1920 X80.616 Y108.547 E212.42550
G0 F10500 X84.024 Y107.712
G1 F1920 X75.975 Y99.663 E212.76452
G0 F10500 X75.975 Y98.956
G1 F1920 X84.024 Y107.005 E213.10355
G0 F10500 X84.024 Y106.298
G1 F1920 X75.975 Y98.248 E213.44259
G0 F10500 X75.975 Y97.541
G1 F1920 X84.024 Y105.591 E213.78164
G0 F10500 X84.024 Y104.884
G1 F1920 X75.975 Y96.834 E214.12068
G0 F10500 X75.975 Y96.127
G1 F1920 X84.024 Y104.177 E214.45973
G0 F10500 X84.024 Y103.470
G1 F1920 X75.975 Y95.420 E214.79877
G0 F10500 X75.975 Y94.713
G1 F1920 X84.024 Y102.763 E215.13782
G0 F10500 X84.024 Y102.056
G1 F1920 X75.975 Y94.006 E215.47686
G0 F10500 X75.975 Y93.299
G1 F1920 X84.024 Y101.348 E215.81589
G0 F10500 X84.024 Y100.641
G1 F1920 X57.357 Y73.974 E216.93910
G0 F10500 X56.650 Y73.974
G1 F1920 X64.700 Y82.024 E217.27817
G0 F10500 X65.029 Y82.353
G1 F1920 X75.645 Y92.969 E217.72532
G0 F10500 X74.630 Y92.662
G1 F1920 X65.336 Y83.367 E218.11680
G0 F10500 X65.836 Y84.574
G1 F1920 X73.423 Y92.161 E218.43637
G0 F10500 X71.902 Y91.348
G1 F1920 X66.650 Y86.095 E218.65760
G0 F10500 X64.734 Y82.290
G0 X63.993 Y82.024
G1 F1920 X55.943 Y73.974 E218.99667
G0 F10500 X55.236 Y73.974
G1 F1920 X63.286 Y82.024 E219.33574
G0 F10500 X62.578 Y82.024
G1 F1920 X54.529 Y73.974 E219.67478
G0 F10500 X53.822 Y73.974
G1 F1920 X61.871 Y82.024 E220.01383
G0 F10500 X61.164 Y82.024
G1 F1920 X53.115 Y73.974 E220.35287
G0 F10500 X52.407 Y73.974
G1 F1920 X60.457 Y82.024 E220.69194
G0 F10500 X59.750 Y82.024
G1 F1920 X51.700 Y73.974 E221.03100
G0 F10500 X50.993 Y73.974
G1 F1920 X59.043 Y82.024 E221.37007
G0 F10500 X58.336 Y82.024
G1 F1920 X50.286 Y73.974 E221.70914
G0 F10500 X49.579 Y73.974
G1 F1920 X57.629 Y82.024 E222.04820
G0 F10500 X56.922 Y82.024
G1 F1920 X49.452 Y74.554 E222.36284
G0 F10500 X49.452 Y75.261
G1 F1920 X56.214 Y82.024 E222.64768
G0 F10500 X55.507 Y82.024
G1 F1920 X49.452 Y75.968 E222.90274
G0 F10500 X49.452 Y76.675
G1 F1920 X54.800 Y82.024 E223.12801
G0 F10500 X54.093 Y82.024
G1 F1920 X49.452 Y77.382 E223.32352
G0 F10500 X49.452 Y78.090
G1 F1920 X53.386 Y82.024 E223.48922
G0 F10500 X52.679 Y82.024
G1 F1920 X49.452 Y78.797 E223.62514
G0 F10500 X49.452 Y79.504
G1 F1920 X51.972 Y82.024 E223.73128
G0 F10500 X51.265 Y82.024
G1 F1920 X49.452 Y80.211 E223.80764
G0 F10500 X49.452 Y80.918
G1 F1920 X50.558 Y82.024 E223.85423
G0 F10500 X49.851 Y82.024
G1 F1920 X49.452 Y81.625 E223.87103
G0 F10500 X58.064 Y73.974
G1 F1920 X84.024 Y99.934 E224.96447
G0 F10500 X84.024 Y99.227
G1 F1920 X58.771 Y73.974 E226.02813
G0 F10500 X59.478 Y73.974
G1 F1920 X84.024 Y98.520 E227.06201
G0 F10500 X84.024 Y97.813
G1 F1920 X60.186 Y73.974 E228.06609
G0 F10500 X60.893 Y73.974
G1 F1920 X84.024 Y97.106 E229.04039
G0 F10500 X84.024 Y96.399
G1 F1920 X61.600 Y73.974 E229.98491
G0 F10500 X62.307 Y73.974
G1 F1920 X84.024 Y95.692 E230.89965
G0 F10500 X84.024 Y94.984
G1 F1920 X63.014 Y73.974 E231.78459
G0 F10500 X63.721 Y73.974
G1 F1920 X84.024 Y94.277 E232.63976
G0 F10500 X84.024 Y93.570
G1 F1920 X64.428 Y73.974 E233.46514
G0 F10500 X64.976 Y73.815
G1 F1920 X84.183 Y93.022 E234.27414
G0 F10500 X84.725 Y92.857
G1 F1920 X65.141 Y73.273 E235.09902
G0 F10500 X65.306 Y72.730
G1 F1920 X85.267 Y92.692 E235.93980
G0 F10500 X85.810 Y92.527
G1 F1920 X65.471 Y72.188 E236.79648
G0 F10500 X65.688 Y71.699
G1 F1920 X86.299 Y92.309 E237.66460
G0 F10500 X86.759 Y92.063
G1 F1920 X65.935 Y71.238 E238.54173
G0 F10500 X66.181 Y70.777
G1 F1920 X87.220 Y91.817 E239.42791
G0 F10500 X87.681 Y91.570
G1 F1920 X66.428 Y70.317 E240.32309
G0 F10500 X66.674 Y69.856
G1 F1920 X88.142 Y91.324 E241.22732
G0 F10500 X88.602 Y91.077
G1 F1920 X66.921 Y69.396 E242.14053
G0 F10500 X67.225 Y68.993
G1 F1920 X89.005 Y90.773 E243.05790
G0 F10500 X89.393 Y90.454
G1 F1920 X67.544 Y68.604 E243.97820
G0 F10500 X67.863 Y68.216
G1 F1920 X89.782 Y90.135 E244.90143
G0 F10500 X90.170 Y89.816
G1 F1920 X68.182 Y67.828 E245.82757
G0 F10500 X68.500 Y67.440
G1 F1920 X90.558 Y89.497 E246.75663
G0 F10500 X90.946 Y89.178
G1 F1920 X68.819 Y67.052 E247.68860
G0 F10500 X69.185 Y66.710
G1 F1920 X91.289 Y88.814 E248.61962
G0 F10500 X91.608 Y88.426
G1 F1920 X69.573 Y66.391 E249.54774
G0 F10500 X69.961 Y66.072
G1 F1920 X91.927 Y88.038 E250.47295
G0 F10500 X92.245 Y87.649
G1 F1920 X70.350 Y65.753 E251.39519
G0 F10500 X70.738 Y65.435
G1 F1920 X92.564 Y87.261 E252.31450
G0 F10500 X92.883 Y86.873
G1 F1920 X71.127 Y65.116 E253.23089
G0 F10500 X71.554 Y64.837
G1 F1920 X93.162 Y86.445 E254.14102
G0 F10500 X93.408 Y85.984
G1 F1920 X72.015 Y64.591 E255.04209
G0 F10500 X72.476 Y64.344
G1 F1920 X93.655 Y85.523 E255.93415
G0 F10500 X93.902 Y85.063
G1 F1920 X72.936 Y64.097 E256.81724
G0 F10500 X73.397 Y63.851
G1 F1920 X94.148 Y84.602 E257.69127
G0 F10500 X94.395 Y84.142
G1 F1920 X73.858 Y63.604 E258.55631
G0 F10500 X74.374 Y63.414
G1 F1920 X94.585 Y83.625 E259.40760
G0 F10500 X94.749 Y83.082
G1 F1920 X74.917 Y63.249 E260.24295
G0 F10500 X75.459 Y63.085
G1 F1920 X94.914 Y82.539 E261.06237
G0 F10500 X95.106 Y82.025
G1 F1920 X75.973 Y62.892 E261.86826
G0 F10500 X75.973 Y62.185
G1 F1920 X95.813 Y82.025 E262.70392
G0 F10500 X96.520 Y82.025
G1 F1920 X75.973 Y61.477 E263.56938
G0 F10500 X75.973 Y60.770
G1 F1920 X97.227 Y82.025 E264.46462
G0 F10500 X97.934 Y82.025
G1 F1920 X75.973 Y60.063 E265.38964
G0 F10500 X75.973 Y59.356
G1 F1920 X98.642 Y82.025 E266.34446
G0 F10500 X99.349 Y82.025
G1 F1920 X75.973 Y58.649 E267.32906
G0 F10500 X75.973 Y57.942
G1 F1920 X100.056 Y82.025 E268.34344
G0 F10500 X100.763 Y82.025
G1 F1920 X75.973 Y57.235 E269.38759
G0 F10500 X75.973 Y56.528
G1 F1920 X101.470 Y82.025 E270.46153
G0 F10500 X102.177 Y82.025
G1 F1920 X75.973 Y55.821 E271.56524
G0 F10500 X75.973 Y55.114
G1 F1920 X102.884 Y82.025 E272.69874
G0 F10500 X103.591 Y82.025
G1 F1920 X95.541 Y73.974 E273.03782
G0 F10500 X96.248 Y73.974
G1 F1920 X104.298 Y82.025 E273.37691
G0 F10500 X105.006 Y82.025
G1 F1920 X96.955 Y73.974 E273.71602
G0 F10500 X97.662 Y73.974
G1 F1920 X105.713 Y82.025 E274.05513
G0 F10500 X106.420 Y82.025
G1 F1920 X98.369 Y73.974 E274.39424
G0 F10500 X99.076 Y73.974
G1 F1920 X107.127 Y82.025 E274.73335
G0 F10500 X107.834 Y82.025
G1 F1920 X99.784 Y73.974 E275.07243
G0 F10500 X95.266 Y73.710
G0 X94.865 Y73.298
G1 F1920 X84.701 Y63.134 E275.50054
G0 F10500 X84.024 Y62.458
G1 F1920 X75.973 Y54.406 E275.83967
G0 F10500 X75.973 Y53.699
G1 F1920 X84.024 Y61.750 E276.17878
G0 F10500 X84.024 Y61.043
G1 F1920 X75.973 Y52.992 E276.51789
G0 F10500 X75.973 Y52.285
G1 F1920 X84.024 Y60.336 E276.85700
G0 F10500 X84.290 Y62.734
G0 X85.716 Y63.443
G1 F1920 X94.556 Y72.282 E277.22932
G0 F10500 X93.882 Y70.901
G1 F1920 X87.098 Y64.117 E277.51506
G0 F10500 X88.619 Y64.931
G1 F1920 X93.068 Y69.380 E277.70245
G0 F10500 X95.266 Y73.710
G0 X100.491 Y73.974
G1 F1920 X108.541 Y82.025 E278.04154
G0 F10500 X109.248 Y82.025
G1 F1920 X101.198 Y73.974 E278.38063
G0 F10500 X101.905 Y73.974
G1 F1920 X109.955 Y82.025 E278.71971
G0 F10500 X110.547 Y81.909
G1 F1920 X102.612 Y73.974 E279.05394
G0 F10500 X103.319 Y73.974
G1 F1920 X110.547 Y81.202 E279.35838
G0 F10500 X110.547 Y80.495
G1 F1920 X104.026 Y73.974 E279.63305
G0 F10500 X104.733 Y73.974
G1 F1920 X110.547 Y79.788 E279.87793
G0 F10500 X110.547 Y79.081
G1 F1920 X105.440 Y73.974 E280.09304
G0 F10500 X106.148 Y73.974
G1 F1920 X110.547 Y78.374 E280.27835
G0 F10500 X110.547 Y77.667
G1 F1920 X106.855 Y73.974 E280.43387
G0 F10500 X107.562 Y73.974
G1 F1920 X110.547 Y76.960 E280.55962
G0 F10500 X110.547 Y76.252
G1 F1920 X108.269 Y73.974 E280.65557
G0 F10500 X108.976 Y73.974
G1 F1920 X110.547 Y75.545 E280.72174
G0 F10500 X110.547 Y74.838
G1 F1920 X109.683 Y73.974 E280.75814
G0 F10500 X110.390 Y73.974
G1 F1920 X110.547 Y74.131 E280.76475
G0 F10500 X95.266 Y73.710
G0 X84.290 Y62.734
G0 X84.024 Y59.629
G1 F1920 X75.973 Y51.578 E281.10386
G0 F10500 X75.973 Y50.871
G1 F1920 X84.024 Y58.922 E281.44297
G0 F10500 X84.024 Y58.215
G1 F1920 X75.973 Y50.164 E281.78207
G0 F10500 X75.973 Y49.457
G1 F1920 X84.024 Y57.508 E282.12118
G0 F10500 X84.024 Y56.801
G1 F1920 X75.973 Y48.750 E282.46029
G0 F10500 X75.973 Y48.042
G1 F1920 X84.024 Y56.094 E282.79942
G0 F10500 X84.024 Y55.386
G1 F1920 X76.090 Y47.452 E283.13360
G0 F10500 X76.797 Y47.452
G1 F1920 X84.024 Y54.679 E283.43800
G0 F10500 X84.024 Y53.972
G1 F1920 X77.504 Y47.452 E283.71263
G0 F10500 X78.211 Y47.452
G1 F1920 X84.024 Y53.265 E283.95747
G0 F10500 X84.024 Y52.558
G1 F1920 X78.918 Y47.452 E284.17254
G0 F10500 X79.625 Y47.452
G1 F1920 X84.024 Y51.851 E284.35782
G0 F10500 X84.024 Y51.144
G1 F1920 X80.332 Y47.452 E284.51333
G0 F10500 X81.040 Y47.452
G1 F1920 X84.024 Y50.437 E284.63904
G0 F10500 X84.024 Y49.730
G1 F1920 X81.747 Y47.452 E284.73497
G0 F10500 X82.454 Y47.452
G1 F1920 X84.024 Y49.023 E284.80111
G0 F10500 X84.024 Y48.315
G1 F1920 X83.161 Y47.452 E284.83746
G0 F10500 X83.868 Y47.452
G1 F1920 X84.024 Y47.608 E284.84403
G0 F10500 X75.975 Y104.612
G1 F1920 X79.909 Y108.547 E285.00976
G0 F10500 X79.202 Y108.547
G1 F1920 X75.975 Y105.320 E285.14568
G0 F10500 X75.975 Y106.027
G1 F1920 X78.495 Y108.547 E285.25182
G0 F10500 X77.788 Y108.547
G1 F1920 X75.975 Y106.734 E285.32818
G0 F10500 X75.975 Y107.441
G1 F1920 X77.081 Y108.547 E285.37477
G0 F10500 X76.373 Y108.547
G1 F1920 X75.975 Y108.148 E285.39155
;LAYER:3
G0 F10500 X75.800 Y108.723 Z1.565
;TYPE:WALL-INNER
G1 F1740 X75.800 Y93.200 E285.85388
G1 X73.936 Y92.634 E285.91190
G1 X71.202 Y91.172 E286.00424
G1 X68.800 Y89.200 E286.09680
G1 X66.828 Y86.798 E286.18936
G1 X65.366 Y84.064 E286.28170
G1 X64.800 Y82.200 E286.33972
G1 X49.277 Y82.200 E286.80205
G1 X49.277 Y73.800 E287.05223
G1 X64.800 Y73.800 E287.51455
G1 X65.366 Y71.936 E287.57257
G1 X66.828 Y69.202 E287.66491
G1 X68.800 Y66.800 E287.75747
G1 X71.202 Y64.828 E287.85003
G1 X73.936 Y63.366 E287.94237
G1 X75.800 Y62.800 E288.00039
G1 X75.800 Y47.277 E288.46272
G1 X84.200 Y47.277 E288.71290
G1 X84.200 Y62.800 E289.17523
G1 X86.064 Y63.366 E289.23325
G1 X88.798 Y64.828 E289.32559
G1 X91.200 Y66.800 E289.41815
G1 X93.172 Y69.202 E289.51071
G1 X94.634 Y71.936 E289.60305
G1 X95.200 Y73.800 E289.66106
G1 X110.723 Y73.800 E290.12339
G1 X110.723 Y82.200 E290.37357
G1 X95.200 Y82.200 E290.83590
G1 X94.634 Y84.064 E290.89392
G1 X93.172 Y86.798 E290.98626
G1 X91.200 Y89.200 E291.07882
G1 X88.798 Y91.172 E291.17138
G1 X86.064 Y92.634 E291.26372
G1 X84.200 Y93.200 E291.32174
G1 X84.200 Y108.723 E291.78406
G1 X75.800 Y108.723 E292.03425
G0 F10500 X75.300 Y109.223
;TYPE:WALL-OUTER
G1 F1500 X75.300 Y93.571 E292.50041
G1 X73.745 Y93.099 E292.54881
G1 X70.922 Y91.589 E292.64417
G1 X68.445 Y89.555 E292.73962
G1 X66.411 Y87.078 E292.83508
G1 X64.901 Y84.255 E292.93043
G1 X64.429 Y82.700 E292.97883
G1 X48.777 Y82.700 E293.44500
G1 X48.777 Y73.300 E293.72497
G1 X64.429 Y73.300 E294.19114
G1 X64.901 Y71.745 E294.23954
G1 X66.411 Y68.922 E294.33489
G1 X68.445 Y66.445 E294.43035
G1 X70.922 Y64.411 E294.52580
G1 X73.745 Y62.901 E294.62115
G1 X75.300 Y62.429 E294.66955
G1 X75.300 Y46.777 E295.13572
G1 X84.700 Y46.777 E295.41569
G1 X84.700 Y62.429 E295.88186
G1 X86.255 Y62.901 E295.93026
G1 X89.078 Y64.411 E296.02561
G1 X91.555 Y66.445 E296.12107
G1 X93.589 Y68.922 E296.21653
G1 X95.099 Y71.745 E296.31188
G1 X95.571 Y73.300 E296.36028
G1 X111.223 Y73.300 E296.82644
G1 X111.223 Y82.700 E297.10641
G1 X95.571 Y82.700 E297.57258
G1 X95.099 Y84.255 E297.62098
G1 X93.589 Y87.078 E297.71633
G1 X91.555 Y89.555 E297.81179
G1 X89.078 Y91.589 E297.90725
G1 X86.255 Y93.099 E298.00260
G1 X84.700 Y93.571 E298.05100
G1 X84.700 Y109.223 E298.51717
G1 X75.300 Y109.223 E298.79713
G0 F10500 X75.975 Y108.315
;TYPE:FILL
G1 F1980 X84.024 Y100.265 E299.13618
G0 F10500 X84.024 Y101.149
G1 F1980 X76.627 Y108.547 E299.44776
G0 F10500 X77.510 Y108.547
G1 F1980 X84.024 Y102.033 E299.72213
G0 F10500 X84.024 Y102.917
G1 F1980 X78.394 Y108.547 E299.95926
G0 F10500 X79.278 Y108.547
G1 F1980 X84.024 Y103.801 E300.15917
G0 F10500 X84.024 Y104.685
G1 F1980 X80.162 Y108.547 E300.32183
G0 F10500 X81.046 Y108.547
G1 F1980 X84.024 Y105.568 E300.44729
G0 F10500 X84.024 Y106.452
G1 F1980 X81.930 Y108.547 E300.53551
G0 F10500 X82.814 Y108.547
G1 F1980 X84.024 Y107.336 E300.58650
G0 F10500 X84.024 Y108.220
G1 F1980 X83.698 Y108.547 E300.60025
G0 F10500 X75.975 Y107.431
G1 F1980 X84.024 Y99.381 E300.93929
G0 F10500 X84.024 Y98.497
G1 F1980 X75.975 Y106.547 E301.27834
G0 F10500 X75.975 Y105.663
G1 F1980 X84.024 Y97.613 E301.61738
G0 F10500 X84.024 Y96.730
G1 F1980 X75.975 Y104.779 E301.95641
G0 F10500 X75.975 Y103.895
G1 F1980 X84.024 Y95.846 E302.29543
G0 F10500 X84.024 Y94.962
G1 F1980 X75.975 Y103.012 E302.63448
G0 F10500 X75.975 Y102.128
G1 F1980 X84.024 Y94.078 E302.97352
G0 F10500 X84.024 Y93.194
G1 F1980 X75.975 Y101.244 E303.31257
G0 F10500 X75.975 Y100.360
G1 F1980 X102.360 Y73.974 E304.42393
G0 F10500 X103.244 Y73.974
G1 F1980 X95.194 Y82.025 E304.76302
G0 F10500 X95.015 Y82.203
G1 F1980 X84.202 Y93.016 E305.21846
G0 F10500 X85.472 Y92.630
G1 F1980 X94.630 Y83.472 E305.60420
G0 F10500 X93.875 Y85.111
G1 F1980 X87.111 Y91.875 E305.88910
G0 F10500 X89.514 Y90.356
G1 F1980 X92.355 Y87.515 E306.00876
G0 F10500 X95.266 Y82.290
G0 X96.078 Y82.025
G1 F1980 X104.128 Y73.974 E306.34785
G0 F10500 X105.012 Y73.974
G1 F1980 X96.962 Y82.025 E306.68693
G0 F10500 X97.845 Y82.025
G1 F1980 X105.896 Y73.974 E307.02604
G0 F10500 X106.780 Y73.974
G1 F1980 X98.729 Y82.025 E307.36515
G0 F10500 X99.613 Y82.025
G1 F1980 X107.664 Y73.974 E307.70426
G0 F10500 X108.547 Y73.974
G1 F1980 X100.497 Y82.025 E308.04335
G0 F10500 X101.381 Y82.025
G1 F1980 X109.431 Y73.974 E308.38243
G0 F10500 X110.315 Y73.974
G1 F1980 X102.265 Y82.025 E308.72152
G0 F10500 X103.149 Y82.025
G1 F1980 X110.546 Y74.627 E309.03311
G0 F10500 X110.546 Y75.511
G1 F1980 X104.033 Y82.025 E309.30745
G0 F10500 X104.916 Y82.025
G1 F1980 X110.546 Y76.395 E309.54459
G0 F10500 X110.546 Y77.278
G1 F1980 X105.800 Y82.025 E309.74451
G0 F10500 X106.684 Y82.025
G1 F1980 X110.546 Y78.162 E309.90720
G0 F10500 X110.546 Y79.046
G1 F1980 X107.568 Y82.025 E310.03266
G0 F10500 X108.452 Y82.025
G1 F1980 X110.546 Y79.930 E310.12088
G0 F10500 X101.476 Y73.974
G1 F1980 X75.975 Y99.476 E311.19500
G0 F10500 X75.975 Y98.592
G1 F1980 X100.593 Y73.974 E312.23191
G0 F10500 X99.709 Y73.974
G1 F1980 X75.975 Y97.708 E313.23159
G0 F10500 X75.975 Y96.824
G1 F1980 X98.825 Y73.974 E314.19403
G0 F10500 X97.941 Y73.974
G1 F1980 X75.975 Y95.940 E315.11924
G0 F10500 X75.975 Y95.057
G1 F1980 X97.057 Y73.974 E316.00724
G0 F10500 X96.173 Y73.974
G1 F1980 X75.975 Y94.173 E316.85800
G0 F10500 X75.975 Y93.289
G1 F1980 X95.289 Y73.974 E317.67153
G0 F10500 X94.914 Y73.465
G1 F1980 X75.464 Y92.915 E318.49076
G0 F10500 X74.786 Y92.710
G1 F1980 X94.709 Y72.787 E319.32992
G0 F10500 X94.503 Y72.109
G1 F1980 X74.108 Y92.504 E320.18896
G0 F10500 X73.516 Y92.212
G1 F1980 X94.211 Y71.517 E321.06064
G0 F10500 X93.903 Y70.941
G1 F1980 X72.940 Y91.904 E321.94360
G0 F10500 X72.364 Y91.596
G1 F1980 X93.595 Y70.365 E322.83785
G0 F10500 X93.287 Y69.790
G1 F1980 X71.789 Y91.288 E323.74335
G0 F10500 X71.226 Y90.966
G1 F1980 X92.965 Y69.227 E324.65900
G0 F10500 X92.566 Y68.742
G1 F1980 X70.741 Y90.567 E325.57827
G0 F10500 X70.256 Y90.168
G1 F1980 X92.167 Y68.257 E326.50116
G0 F10500 X91.769 Y67.771
G1 F1980 X69.770 Y89.770 E327.42776
G0 F10500 X69.285 Y89.371
G1 F1980 X91.370 Y67.286 E328.35798
G0 F10500 X90.950 Y66.823
G1 F1980 X68.823 Y88.950 E329.28997
G0 F10500 X68.424 Y88.465
G1 F1980 X90.465 Y66.424 E330.21834
G0 F10500 X89.980 Y66.026
G1 F1980 X68.026 Y87.979 E331.14302
G0 F10500 X67.627 Y87.494
G1 F1980 X89.494 Y65.627 E332.06406
G0 F10500 X89.009 Y65.228
G1 F1980 X67.228 Y87.009 E332.98148
G0 F10500 X66.862 Y86.491
G1 F1980 X88.492 Y64.862 E333.89251
G0 F10500 X87.916 Y64.554
G1 F1980 X66.555 Y85.915 E334.79224
G0 F10500 X66.246 Y85.340
G1 F1980 X87.340 Y64.246 E335.68072
G0 F10500 X86.764 Y63.938
G1 F1980 X65.938 Y84.764 E336.55791
G0 F10500 X65.630 Y84.188
G1 F1980 X86.188 Y63.630 E337.42382
G0 F10500 X85.545 Y63.390
G1 F1980 X65.390 Y83.544 E338.27273
G0 F10500 X65.185 Y82.865
G1 F1980 X84.866 Y63.184 E339.10169
G0 F10500 X84.188 Y62.978
G1 F1980 X64.979 Y82.187 E339.91077
G0 F10500 X64.259 Y82.024
G1 F1980 X84.024 Y62.258 E340.74330
G0 F10500 X84.024 Y61.374
G1 F1980 X63.375 Y82.024 E341.61306
G0 F10500 X62.491 Y82.024
G1 F1980 X84.024 Y60.490 E342.52005
G0 F10500 X84.024 Y59.606
G1 F1980 X61.607 Y82.024 E343.46428
G0 F10500 X60.723 Y82.024
G1 F1980 X84.024 Y58.723 E344.44572
G0 F10500 X84.024 Y57.839
G1 F1980 X59.839 Y82.024 E345.46439
G0 F10500 X58.955 Y82.024
G1 F1980 X84.024 Y56.955 E346.52030
G0 F10500 X84.024 Y56.071
G1 F1980 X58.071 Y82.024 E347.61344
G0 F10500 X57.187 Y82.024
G1 F1980 X84.024 Y55.187 E348.74381
G0 F10500 X84.024 Y54.303
G1 F1980 X75.974 Y62.354 E349.08290
G0 F10500 X75.974 Y61.470
G1 F1980 X84.024 Y53.419 E349.42199
G0 F10500 X84.024 Y52.535
G1 F1980 X75.974 Y60.586 E349.76108
G0 F10500 X75.710 Y62.734
G0 X75.149 Y63.179
G1 F1980 X65.179 Y73.148 E350.18099
G0 F10500 X64.354 Y73.973
G1 F1980 X56.304 Y82.024 E350.52008
G0 F10500 X55.420 Y82.024
G1 F1980 X63.470 Y73.973 E350.85917
G0 F10500 X62.586 Y73.973
G1 F1980 X54.536 Y82.024 E351.19826
G0 F10500 X53.652 Y82.024
G1 F1980 X61.702 Y73.973 E351.53734
G0 F10500 X60.818 Y73.973
G1 F1980 X52.768 Y82.024 E351.87643
G0 F10500 X51.884 Y82.024
G1 F1980 X59.935 Y73.973 E352.21554
G0 F10500 X59.051 Y73.973
G1 F1980 X51.000 Y82.024 E352.55465
G0 F10500 X50.116 Y82.024
G1 F1980 X58.167 Y73.973 E352.89376
G0 F10500 X57.283 Y73.973
G1 F1980 X49.452 Y81.805 E353.22362
G0 F10500 X49.452 Y80.921
G1 F1980 X56.399 Y73.973 E353.51625
G0 F10500 X55.515 Y73.973
G1 F1980 X49.452 Y80.037 E353.77164
G0 F10500 X49.452 Y79.153
G1 F1980 X54.631 Y73.973 E353.98981
G0 F10500 X53.747 Y73.973
G1 F1980 X49.452 Y78.269 E354.17073
G0 F10500 X49.452 Y77.385
G1 F1980 X52.864 Y73.973 E354.31445
G0 F10500 X51.980 Y73.973
G1 F1980 X49.452 Y76.501 E354.42093
G0 F10500 X49.452 Y75.617
G1 F1980 X51.096 Y73.973 E354.49017
G0 F10500 X50.212 Y73.973
G1 F1980 X49.452 Y74.734 E354.52220
G0 F10500 X64.734 Y73.710
G0 X65.626 Y71.818
G1 F1980 X73.819 Y63.625 E354.86729
G0 F10500 X71.918 Y64.642
G1 F1980 X66.642 Y69.918 E355.08952
G0 F10500 X75.710 Y62.734
G0 X75.974 Y59.702
G1 F1980 X84.024 Y51.652 E355.42858
G0 F10500 X84.024 Y50.768
G1 F1980 X75.974 Y58.818 E355.76765
G0 F10500 X75.974 Y57.934
G1 F1980 X84.024 Y49.884 E356.10672
G0 F10500 X84.024 Y49.000
G1 F1980 X75.974 Y57.050 E356.44578
G0 F10500 X75.974 Y56.166
G1 F1980 X84.024 Y48.116 E356.78485
G0 F10500 X83.805 Y47.451
G1 F1980 X75.974 Y55.283 E357.11471
G0 F10500 X75.974 Y54.399
G1 F1980 X82.921 Y47.451 E357.40734
G0 F10500 X82.037 Y47.451
G1 F1980 X75.974 Y53.515 E357.66274
G0 F10500 X75.974 Y52.631
G1 F1980 X81.153 Y47.451 E357.88090
G0 F10500 X80.270 Y47.451
G1 F1980 X75.974 Y51.747 E358.06185
G0 F10500 X75.974 Y50.863
G1 F1980 X79.386 Y47.451 E358.20556
G0 F10500 X78.502 Y47.451
G1 F1980 X75.974 Y49.979 E358.31204
G0 F10500 X75.974 Y49.095
G1 F1980 X77.618 Y47.451 E358.38129
G0 F10500 X76.734 Y47.451
G1 F1980 X75.974 Y48.211 E358.41330
G0 F10500 X84.290 Y62.734
G0 X95.266 Y73.710
G0 X109.336 Y82.025
G1 F1980 X110.546 Y80.814 E358.46428
G0 F10500 X110.546 Y81.698
G1 F1980 X110.220 Y82.025 E358.47803
;LAYER:4
G0 F10500 X110.723 Y82.200 Z1.945
;TYPE:WALL-INNER
G1 F2100 X95.200 Y82.200 E358.94036
G1 X94.633 Y84.066 E358.99845
G1 X93.173 Y86.796 E359.09065
G1 X91.200 Y89.200 E359.18328
G1 X88.796 Y91.173 E359.27590
G1 X86.065 Y92.633 E359.36814
G1 X84.200 Y93.198 E359.42618
G1 X84.200 Y108.723 E359.88856
G1 X75.800 Y108.723 E360.13874
G1 X75.800 Y93.200 E360.60107
G1 X73.934 Y92.633 E360.65916
G1 X71.204 Y91.173 E360.75136
G1 X68.800 Y89.200 E360.84399
G1 X66.827 Y86.796 E360.93661
G1 X65.367 Y84.065 E361.02884
G1 X64.802 Y82.200 E361.08688
G1 X49.277 Y82.200 E361.54927
G1 X49.277 Y73.800 E361.79945
G1 X64.800 Y73.800 E362.26178
G1 X65.367 Y71.934 E362.31986
G1 X66.827 Y69.204 E362.41207
G1 X68.800 Y66.800 E362.50469
G1 X71.204 Y64.827 E362.59732
G1 X73.935 Y63.367 E362.68955
G1 X75.800 Y62.802 E362.74759
G1 X75.800 Y47.277 E363.20998
G1 X84.200 Y47.277 E363.46016
G1 X84.200 Y62.800 E363.92249
G1 X86.066 Y63.367 E363.98057
G1 X88.796 Y64.827 E364.07278
G1 X91.200 Y66.800 E364.16540
G1 X93.173 Y69.204 E364.25803
G1 X94.633 Y71.935 E364.35026
G1 X95.198 Y73.800 E364.40830
G1 X110.723 Y73.800 E364.87069
G1 X110.723 Y82.200 E365.12087
G0 F10500 X111.223 Y82.700
;TYPE:WALL-OUTER
G1 F1800 X95.571 Y82.700 E365.58704
G1 X95.099 Y84.255 E365.63544
G1 X93.589 Y87.078 E365.73079
G1 X91.555 Y89.555 E365.82625
G1 X89.078 Y91.589 E365.92170
G1 X86.254 Y93.099 E366.01708
G1 X84.700 Y93.569 E366.06543
G1 X84.700 Y109.223 E366.53166
G1 X75.300 Y109.223 E366.81163
G1 X75.300 Y93.571 E367.27780
G1 X73.745 Y93.099 E367.32620
G1 X70.922 Y91.589 E367.42155
G1 X68.445 Y89.555 E367.51701
G1 X66.411 Y87.078 E367.61246
G1 X64.901 Y84.254 E367.70784
G1 X64.431 Y82.700 E367.75620
G1 X48.777 Y82.700 E368.22242
G1 X48.777 Y73.300 E368.50239
G1 X64.429 Y73.300 E368.96856
G1 X64.901 Y71.745 E369.01696
G1 X66.411 Y68.922 E369.11231
G1 X68.445 Y66.445 E369.20777
G1 X70.922 Y64.411 E369.30323
G1 X73.746 Y62.901 E369.39860
G1 X75.300 Y62.431 E369.44696
G1 X75.300 Y46.777 E369.91319
G1 X84.700 Y46.777 E370.19315
G1 X84.700 Y62.429 E370.65932
G1 X86.255 Y62.901 E370.70772
G1 X89.078 Y64.411 E370.80307
G1 X91.555 Y66.445 E370.89853
G1 X93.589 Y68.922 E370.99399
G1 X95.099 Y71.746 E371.08936
G1 X95.569 Y73.300 E371.13772
G1 X111.223 Y73.300 E371.60395
G1 X111.223 Y82.700 E371.88391
G0 F10500 X110.547 Y81.822
;TYPE:FILL
G1 F2400 X102.700 Y73.975 E372.21443
G0 F10500 X101.817 Y73.975
G1 F2400 X109.866 Y82.025 E372.55347
G0 F10500 X108.982 Y82.025
G1 F2400 X100.933 Y73.975 E372.89252
G0 F10500 X100.049 Y73.975
G1 F2400 X108.098 Y82.025 E373.23156
G0 F10500 X107.215 Y82.025
G1 F2400 X99.165 Y73.975 E373.57063
G0 F10500 X98.281 Y73.975
G1 F2400 X106.331 Y82.025 E373.90970
G0 F10500 X105.447 Y82.025
G1 F2400 X97.397 Y73.975 E374.24876
G0 F10500 X96.513 Y73.975
G1 F2400 X104.563 Y82.025 E374.58783
G0 F10500 X103.679 Y82.025
G1 F2400 X95.629 Y73.975 E374.92690
G0 F10500 X94.824 Y73.169
G1 F2400 X84.827 Y63.172 E375.34797
G0 F10500 X84.024 Y62.370
G1 F2400 X75.974 Y54.319 E375.68706
G0 F10500 X75.974 Y53.436
G1 F2400 X84.024 Y61.486 E376.02612
G0 F10500 X84.024 Y60.602
G1 F2400 X75.974 Y52.552 E376.36519
G0 F10500 X75.974 Y51.668
G1 F2400 X84.024 Y59.718 E376.70426
G0 F10500 X84.024 Y58.834
G1 F2400 X75.974 Y50.784 E377.04332
G0 F10500 X75.974 Y49.900
G1 F2400 X84.024 Y57.950 E377.38239
G0 F10500 X84.024 Y57.067
G1 F2400 X75.974 Y49.016 E377.72148
G0 F10500 X75.974 Y48.132
G1 F2400 X84.024 Y56.183 E378.06057
G0 F10500 X84.024 Y55.299
G1 F2400 X76.178 Y47.452 E378.39106
G0 F10500 X77.061 Y47.452
G1 F2400 X84.024 Y54.415 E378.68434
G0 F10500 X84.024 Y53.531
G1 F2400 X77.945 Y47.452 E378.94039
G0 F10500 X78.829 Y47.452
G1 F2400 X84.024 Y52.647 E379.15920
G0 F10500 X84.024 Y51.763
G1 F2400 X79.713 Y47.452 E379.34078
G0 F10500 X75.974 Y55.203
G1 F2400 X102.795 Y82.025 E380.47051
G0 F10500 X101.911 Y82.025
G1 F2400 X75.974 Y56.087 E381.56300
G0 F10500 X75.974 Y56.971
G1 F2400 X101.027 Y82.025 E382.61825
G0 F10500 X100.143 Y82.025
G1 F2400 X75.974 Y57.855 E383.63627
G0 F10500 X75.974 Y58.739
G1 F2400 X99.260 Y82.025 E384.61708
G0 F10500 X98.376 Y82.025
G1 F2400 X75.974 Y59.623 E385.56065
G0 F10500 X75.974 Y60.507
G1 F2400 X97.492 Y82.025 E386.46699
G0 F10500 X96.608 Y82.025
G1 F2400 X75.974 Y61.391 E387.33610
G0 F10500 X75.974 Y62.274
G1 F2400 X95.724 Y82.025 E388.16799
G0 F10500 X95.016 Y82.201
G1 F2400 X75.799 Y62.984 E388.97741
G0 F10500 X75.121 Y63.189
G1 F2400 X94.810 Y82.879 E389.80673
G0 F10500 X94.605 Y83.557
G1 F2400 X74.443 Y63.395 E390.65596
G0 F10500 X73.800 Y63.636
G1 F2400 X94.364 Y84.200 E391.52212
G0 F10500 X94.055 Y84.775
G1 F2400 X73.225 Y63.945 E392.39948
G0 F10500 X72.648 Y64.252
G1 F2400 X93.747 Y85.351 E393.28817
G0 F10500 X93.439 Y85.927
G1 F2400 X72.072 Y64.560 E394.18815
G0 F10500 X71.496 Y64.868
G1 F2400 X93.131 Y86.503 E395.09941
G0 F10500 X92.763 Y87.018
G1 F2400 X70.980 Y65.236 E396.01690
G0 F10500 X70.495 Y65.635
G1 F2400 X92.365 Y87.504 E396.93804
G0 F10500 X91.966 Y87.989
G1 F2400 X70.009 Y66.033 E397.86285
G0 F10500 X69.524 Y66.431
G1 F2400 X91.568 Y88.475 E398.79134
G0 F10500 X91.169 Y88.960
G1 F2400 X69.039 Y66.830 E399.72346
G0 F10500 X68.619 Y67.294
G1 F2400 X90.704 Y89.379 E400.65368
G0 F10500 X90.218 Y89.777
G1 F2400 X68.220 Y67.779 E401.58024
G0 F10500 X67.822 Y68.265
G1 F2400 X89.733 Y90.175 E402.50311
G0 F10500 X89.247 Y90.574
G1 F2400 X67.424 Y68.750 E403.42232
G0 F10500 X67.025 Y69.235
G1 F2400 X88.762 Y90.972 E404.33788
G0 F10500 X88.198 Y91.293
G1 F2400 X66.704 Y69.799 E405.24321
G0 F10500 X66.397 Y70.375
G1 F2400 X87.622 Y91.600 E406.13721
G0 F10500 X87.046 Y91.909
G1 F2400 X66.089 Y70.951 E407.01994
G0 F10500 X65.780 Y71.526
G1 F2400 X86.470 Y92.216 E407.89140
G0 F10500 X85.876 Y92.506
G1 F2400 X65.491 Y72.121 E408.75002
G0 F10500 X65.285 Y72.798
G1 F2400 X85.198 Y92.712 E409.58878
G0 F10500 X84.520 Y92.918
G1 F2400 X65.079 Y73.476 E410.40766
G0 F10500 X64.693 Y73.974
G1 F2400 X84.024 Y93.306 E411.22190
G0 F10500 X84.024 Y94.190
G1 F2400 X63.809 Y73.974 E412.07338
G0 F10500 X62.925 Y73.974
G1 F2400 X84.024 Y95.074 E412.96209
G0 F10500 X84.024 Y95.957
G1 F2400 X62.041 Y73.974 E413.88802
G0 F10500 X61.157 Y73.974
G1 F2400 X84.024 Y96.841 E414.85118
G0 F10500 X84.024 Y97.725
G1 F2400 X60.273 Y73.974 E415.85157
G0 F10500 X59.389 Y73.974
G1 F2400 X84.024 Y98.609 E416.88920
G0 F10500 X84.024 Y99.493
G1 F2400 X58.506 Y73.974 E417.96404
G0 F10500 X57.622 Y73.974
G1 F2400 X84.024 Y100.377 E419.07611
G0 F10500 X84.024 Y101.261
G1 F2400 X75.975 Y93.211 E419.41516
G0 F10500 X75.771 Y93.007
G1 F2400 X64.992 Y82.228 E419.86917
G0 F10500 X64.787 Y82.024
G1 F2400 X56.738 Y73.974 E420.20822
G0 F10500 X55.854 Y73.974
G1 F2400 X63.904 Y82.024 E420.54728
G0 F10500 X63.020 Y82.024
G1 F2400 X54.970 Y73.974 E420.88635
G0 F10500 X54.086 Y73.974
G1 F2400 X62.136 Y82.024 E421.22541
G0 F10500 X61.252 Y82.024
G1 F2400 X53.202 Y73.974 E421.56448
G0 F10500 X52.318 Y73.974
G1 F2400 X60.368 Y82.024 E421.90355
G0 F10500 X64.735 Y82.290
G0 X65.376 Y83.497
G1 F2400 X74.501 Y92.621 E422.28787
G0 F10500 X72.850 Y91.854
G1 F2400 X66.144 Y85.149 E422.57031
G0 F10500 X67.724 Y87.612
G1 F2400 X70.386 Y90.274 E422.68243
G0 F10500 X75.710 Y93.266
G0 X75.975 Y94.095
G1 F2400 X84.024 Y102.145 E423.02148
G0 F10500 X84.024 Y103.028
G1 F2400 X75.975 Y94.979 E423.36050
G0 F10500 X75.975 Y95.863
G1 F2400 X84.024 Y103.912 E423.69953
G0 F10500 X84.024 Y104.796
G1 F2400 X75.975 Y96.747 E424.03855
G0 F10500 X75.975 Y97.630
G1 F2400 X84.024 Y105.680 E424.37760
G0 F10500 X84.024 Y106.564
G1 F2400 X75.975 Y98.514 E424.71664
G0 F10500 X75.975 Y99.398
G1 F2400 X84.024 Y107.448 E425.05569
G0 F10500 X84.024 Y108.332
G1 F2400 X75.975 Y100.282 E425.39473
G0 F10500 X75.975 Y101.166
G1 F2400 X83.355 Y108.547 E425.70560
G0 F10500 X82.471 Y108.547
G1 F2400 X75.975 Y102.050 E425.97923
G0 F10500 X75.975 Y102.934
G1 F2400 X81.588 Y108.547 E426.21565
G0 F10500 X80.704 Y108.547
G1 F2400 X75.975 Y103.818 E426.41484
G0 F10500 X75.975 Y104.702
G1 F2400 X79.820 Y108.547 E426.57679
G0 F10500 X78.936 Y108.547
G1 F2400 X75.975 Y105.585 E426.70153
G0 F10500 X75.975 Y106.469
G1 F2400 X78.052 Y108.547 E426.78903
G0 F10500 X77.168 Y108.547
G1 F2400 X75.975 Y107.353 E426.83930
G0 F10500 X75.975 Y108.237
G1 F2400 X76.284 Y108.547 E426.85234
G0 F10500 X75.710 Y93.266
G0 X64.735 Y82.290
G0 X59.484 Y82.024
G1 F2400 X51.434 Y73.974 E427.19141
G0 F10500 X50.551 Y73.974
G1 F2400 X58.600 Y82.024 E427.53045
G0 F10500 X57.716 Y82.024
G1 F2400 X49.667 Y73.974 E427.86950
G0 F10500 X49.452 Y74.643
G1 F2400 X56.833 Y82.024 E428.18038
G0 F10500 X55.949 Y82.024
G1 F2400 X49.452 Y75.527 E428.45404
G0 F10500 X49.452 Y76.411
G1 F2400 X55.065 Y82.024 E428.69046
G0 F10500 X54.181 Y82.024
G1 F2400 X49.452 Y77.295 E428.88964
G0 F10500 X49.452 Y78.179
G1 F2400 X53.297 Y82.024 E429.05160
G0 F10500 X52.413 Y82.024
G1 F2400 X49.452 Y79.063 E429.17631
G0 F10500 X49.452 Y79.946
G1 F2400 X51.529 Y82.024 E429.26382
G0 F10500 X50.645 Y82.024
G1 F2400 X49.452 Y80.830 E429.31409
G0 F10500 X49.452 Y81.714
G1 F2400 X49.761 Y82.024 E429.32712
G0 F10500 X86.145 Y63.607
G1 F2400 X94.389 Y71.851 E429.67436
G0 F10500 X93.375 Y69.953
G1 F2400 X88.046 Y64.623 E429.89884
G0 F10500 X84.290 Y62.734
G0 X84.024 Y50.879
G1 F2400 X80.597 Y47.452 E430.04319
G0 F10500 X81.481 Y47.452
G1 F2400 X84.024 Y49.995 E430.15030
G0 F10500 X84.024 Y49.112
G1 F2400 X82.365 Y47.452 E430.22020
G0 F10500 X83.249 Y47.452
G1 F2400 X84.024 Y48.228 E430.25286
G0 F10500 X84.290 Y62.734
G0 X95.265 Y73.710
G0 X103.584 Y73.975
G1 F2400 X110.547 Y80.938 E430.54614
G0 F10500 X110.547 Y80.054
G1 F2400 X104.468 Y73.975 E430.80219
G0 F10500 X105.352 Y73.975
G1 F2400 X110.547 Y79.170 E431.02100
G0 F10500 X110.547 Y78.286
G1 F2400 X106.236 Y73.975 E431.20258
G0 F10500 X107.120 Y73.975
G1 F2400 X110.547 Y77.402 E431.34693
G0 F10500 X110.547 Y76.518
G1 F2400 X108.004 Y73.975 E431.45404
G0 F10500 X108.888 Y73.975
G1 F2400 X110.547 Y75.634 E431.52392
G0 F10500 X110.547 Y74.751
G1 F2400 X109.771 Y73.975 E431.55660
;LAYER:5
G0 F10500 X110.723 Y73.800 Z2.325
;TYPE:WALL-INNER
G1 F2100 X110.723 Y82.200 E431.80678
G1 X95.200 Y82.200 E432.26911
G1 X94.634 Y84.064 E432.32713
G1 X93.172 Y86.798 E432.41947
G1 X91.200 Y89.200 E432.51203
G1 X88.798 Y91.172 E432.60459
G1 X86.063 Y92.634 E432.69696
G1 X84.200 Y93.198 E432.75493
G1 X84.200 Y108.723 E433.21732
G1 X75.800 Y108.723 E433.46750
G1 X75.800 Y93.200 E433.92982
G1 X73.936 Y92.634 E433.98784
G1 X71.202 Y91.172 E434.08018
G1 X68.800 Y89.200 E434.17274
G1 X66.828 Y86.798 E434.26530
G1 X65.366 Y84.063 E434.35767
G1 X64.802 Y82.200 E434.41564
G1 X49.277 Y82.200 E434.87803
G1 X49.277 Y73.800 E435.12821
G1 X64.800 Y73.800 E435.59054
G1 X65.366 Y71.936 E435.64856
G1 X66.828 Y69.202 E435.74089
G1 X68.800 Y66.800 E435.83346
G1 X71.202 Y64.828 E435.92602
G1 X73.937 Y63.366 E436.01838
G1 X75.800 Y62.802 E436.07635
G1 X75.800 Y47.277 E436.53874
G1 X84.200 Y47.277 E436.78892
G1 X84.200 Y62.800 E437.25125
G1 X86.064 Y63.366 E437.30927
G1 X88.798 Y64.828 E437.40161
G1 X91.200 Y66.800 E437.49417
G1 X93.172 Y69.202 E437.58673
G1 X94.634 Y71.937 E437.67909
G1 X95.198 Y73.800 E437.73707
G1 X110.723 Y73.800 E438.19945
G0 F10500 X111.223 Y73.300
;TYPE:WALL-OUTER
G1 F1800 X111.223 Y82.700 E438.47942
G1 X95.571 Y82.700 E438.94559
G1 X95.099 Y84.255 E438.99399
G1 X93.589 Y87.078 E439.08934
G1 X91.555 Y89.555 E439.18480
G1 X89.078 Y91.589 E439.28026
G1 X86.254 Y93.099 E439.37563
G1 X84.700 Y93.569 E439.42399
G1 X84.700 Y109.223 E439.89022
G1 X75.300 Y109.223 E440.17018
G1 X75.300 Y93.571 E440.63635
G1 X73.745 Y93.099 E440.68475
G1 X70.922 Y91.589 E440.78010
G1 X68.445 Y89.555 E440.87556
G1 X66.411 Y87.078 E440.97102
G1 X64.901 Y84.254 E441.06639
G1 X64.431 Y82.700 E441.11475
G1 X48.777 Y82.700 E441.58098
G1 X48.777 Y73.300 E441.86094
G1 X64.429 Y73.300 E442.32711
G1 X64.901 Y71.745 E442.37551
G1 X66.411 Y68.922 E442.47086
G1 X68.445 Y66.445 E442.56632
G1 X70.922 Y64.411 E442.66178
G1 X73.746 Y62.901 E442.75716
G1 X75.300 Y62.431 E442.80551
G1 X75.300 Y46.777 E443.27174
G1 X84.700 Y46.777 E443.55170
G1 X84.700 Y62.429 E444.01787
G1 X86.255 Y62.901 E444.06627
G1 X89.078 Y64.411 E444.16162
G1 X91.555 Y66.445 E444.25708
G1 X93.589 Y68.922 E444.35254
G1 X95.099 Y71.746 E444.44792
G1 X95.569 Y73.300 E444.49627
G1 X111.223 Y73.300 E444.96250
G0 F10500 X110.315 Y73.974
;TYPE:FILL
G1 F2400 X102.265 Y82.025 E445.30159
G0 F10500 X103.149 Y82.025
G1 F2400 X110.546 Y74.627 E445.61317
G0 F10500 X110.546 Y75.511
G1 F2400 X104.033 Y82.025 E445.88752
G0 F10500 X104.916 Y82.025
G1 F2400 X110.546 Y76.395 E446.12465
G0 F10500 X110.546 Y77.278
G1 F2400 X105.800 Y82.025 E446.32458
G0 F10500 X106.684 Y82.025
G1 F2400 X110.546 Y78.162 E446.48727
G0 F10500 X110.546 Y79.046
G1 F2400 X107.568 Y82.025 E446.61272
G0 F10500 X108.452 Y82.025
G1 F2400 X110.546 Y79.930 E446.70094
G0 F10500 X109.431 Y73.974
G1 F2400 X101.381 Y82.025 E447.04003
G0 F10500 X100.497 Y82.025
G1 F2400 X108.547 Y73.974 E447.37912
G0 F10500 X107.664 Y73.974
G1 F2400 X99.613 Y82.025 E447.71823
G0 F10500 X98.729 Y82.025
G1 F2400 X106.780 Y73.974 E448.05733
G0 F10500 X105.896 Y73.974
G1 F2400 X97.845 Y82.025 E448.39644
G0 F10500 X96.962 Y82.025
G1 F2400 X105.012 Y73.974 E448.73553
G0 F10500 X104.128 Y73.974
G1 F2400 X96.078 Y82.025 E449.07462
G0 F10500 X95.194 Y82.025
G1 F2400 X103.244 Y73.974 E449.41371
G0 F10500 X102.360 Y73.974
G1 F2400 X75.975 Y100.360 E450.52506
G0 F10500 X75.975 Y101.244
G1 F2400 X84.024 Y93.194 E450.86411
G0 F10500 X84.207 Y93.012
G1 F2400 X95.015 Y82.203 E451.31936
G0 F10500 X94.630 Y83.472
G1 F2400 X85.474 Y92.628 E451.70502
G0 F10500 X87.112 Y91.874
G1 F2400 X93.875 Y85.111 E451.98987
G0 F10500 X92.355 Y87.515
G1 F2400 X89.514 Y90.356 E452.10954
G0 F10500 X84.290 Y93.265
G0 X84.024 Y94.078
G1 F2400 X75.975 Y102.128 E452.44858
G0 F10500 X75.975 Y103.012
G1 F2400 X84.024 Y94.962 E452.78763
G0 F10500 X84.024 Y95.846
G1 F2400 X75.975 Y103.895 E453.12665
G0 F10500 X75.975 Y104.779
G1 F2400 X84.024 Y96.730 E453.46568
G0 F10500 X84.024 Y97.613
G1 F2400 X75.975 Y105.663 E453.80472
G0 F10500 X75.975 Y106.547
G1 F2400 X84.024 Y98.497 E454.14377
G0 F10500 X84.024 Y99.381
G1 F2400 X75.975 Y107.431 E454.48281
G0 F10500 X75.975 Y108.315
G1 F2400 X84.024 Y100.265 E454.82186
G0 F10500 X84.024 Y101.149
G1 F2400 X76.627 Y108.547 E455.13344
G0 F10500 X77.510 Y108.547
G1 F2400 X84.024 Y102.033 E455.40781
G0 F10500 X84.024 Y102.917
G1 F2400 X78.394 Y108.547 E455.64495
G0 F10500 X79.278 Y108.547
G1 F2400 X84.024 Y103.801 E455.84485
G0 F10500 X84.024 Y104.685
G1 F2400 X80.162 Y108.547 E456.00752
G0 F10500 X81.046 Y108.547
G1 F2400 X84.024 Y105.568 E456.13297
G0 F10500 X84.024 Y106.452
G1 F2400 X81.930 Y108.547 E456.22119
G0 F10500 X82.814 Y108.547
G1 F2400 X84.024 Y107.336 E456.27218
G0 F10500 X84.024 Y108.220
G1 F2400 X83.698 Y108.547 E456.28593
G0 F10500 X75.975 Y99.476
G1 F2400 X101.476 Y73.974 E457.36005
G0 F10500 X100.593 Y73.974
G1 F2400 X75.975 Y98.592 E458.39697
G0 F10500 X75.975 Y97.708
G1 F2400 X99.709 Y73.974 E459.39664
G0 F10500 X98.825 Y73.974
G1 F2400 X75.975 Y96.824 E460.35909
G0 F10500 X75.975 Y95.940
G1 F2400 X97.941 Y73.974 E461.28430
G0 F10500 X97.057 Y73.974
G1 F2400 X75.975 Y95.057 E462.17229
G0 F10500 X75.975 Y94.173
G1 F2400 X96.173 Y73.974 E463.02306
G0 F10500 X95.289 Y73.974
G1 F2400 X75.975 Y93.289 E463.83658
G0 F10500 X75.464 Y92.915
G1 F2400 X94.913 Y73.466 E464.65578
G0 F10500 X94.708 Y72.788
G1 F2400 X74.786 Y92.710 E465.49489
G0 F10500 X74.108 Y92.504
G1 F2400 X94.503 Y72.109 E466.35393
G0 F10500 X94.211 Y71.517
G1 F2400 X73.516 Y92.212 E467.22561
G0 F10500 X72.940 Y91.904
G1 F2400 X93.903 Y70.941 E468.10857
G0 F10500 X93.594 Y70.366
G1 F2400 X72.364 Y91.596 E469.00278
G0 F10500 X71.789 Y91.288
G1 F2400 X93.287 Y69.790 E469.90827
G0 F10500 X92.965 Y69.227
G1 F2400 X71.226 Y90.966 E470.82392
G0 F10500 X70.741 Y90.567
G1 F2400 X92.566 Y68.742 E471.74319
G0 F10500 X92.167 Y68.257
G1 F2400 X70.256 Y90.168 E472.66609
G0 F10500 X69.770 Y89.770
G1 F2400 X91.769 Y67.771 E473.59268
G0 F10500 X91.370 Y67.286
G1 F2400 X69.285 Y89.371 E474.52291
G0 F10500 X68.823 Y88.950
G1 F2400 X90.950 Y66.823 E475.45490
G0 F10500 X90.465 Y66.424
G1 F2400 X68.424 Y88.465 E476.38326
G0 F10500 X68.026 Y87.979
G1 F2400 X89.980 Y66.026 E477.30795
G0 F10500 X89.494 Y65.627
G1 F2400 X67.627 Y87.494 E478.22899
G0 F10500 X67.228 Y87.009
G1 F2400 X89.009 Y65.228 E479.14640
G0 F10500 X88.492 Y64.862
G1 F2400 X66.862 Y86.491 E480.05744
G0 F10500 X66.555 Y85.915
G1 F2400 X87.916 Y64.554 E480.95717
G0 F10500 X87.340 Y64.246
G1 F2400 X66.247 Y85.339 E481.84561
G0 F10500 X65.939 Y84.763
G1 F2400 X86.764 Y63.938 E482.72276
G0 F10500 X86.188 Y63.630
G1 F2400 X65.631 Y84.187 E483.58862
G0 F10500 X65.391 Y83.543
G1 F2400 X85.545 Y63.390 E484.43748
G0 F10500 X84.866 Y63.184
G1 F2400 X65.186 Y82.864 E485.26641
G0 F10500 X64.981 Y82.185
G1 F2400 X84.188 Y62.978 E486.07541
G0 F10500 X84.024 Y62.258
G1 F2400 X64.259 Y82.024 E486.90793
G0 F10500 X63.375 Y82.024
G1 F2400 X84.024 Y61.374 E487.77769
G0 F10500 X84.024 Y60.490
G1 F2400 X62.491 Y82.024 E488.68468
G0 F10500 X61.607 Y82.024
G1 F2400 X84.024 Y59.606 E489.62891
G0 F10500 X84.024 Y58.723
G1 F2400 X60.723 Y82.024 E490.61035
G0 F10500 X59.839 Y82.024
G1 F2400 X84.024 Y57.839 E491.62902
G0 F10500 X84.024 Y56.955
G1 F2400 X58.955 Y82.024 E492.68493
G0 F10500 X58.071 Y82.024
G1 F2400 X84.024 Y56.071 E493.77807
G0 F10500 X84.024 Y55.187
G1 F2400 X57.187 Y82.024 E494.90845
G0 F10500 X56.304 Y82.024
G1 F2400 X64.354 Y73.973 E495.24753
G0 F10500 X63.470 Y73.973
G1 F2400 X55.420 Y82.024 E495.58662
G0 F10500 X54.536 Y82.024
G1 F2400 X62.586 Y73.973 E495.92571
G0 F10500 X61.702 Y73.973
G1 F2400 X53.652 Y82.024 E496.26480
G0 F10500 X52.768 Y82.024
G1 F2400 X60.818 Y73.973 E496.60388
G0 F10500 X64.734 Y73.710
G0 X65.179 Y73.148
G1 F2400 X75.146 Y63.182 E497.02367
G0 F10500 X75.974 Y62.354
G1 F2400 X84.024 Y54.303 E497.36276
G0 F10500 X84.024 Y53.419
G1 F2400 X75.974 Y61.470 E497.70185
G0 F10500 X75.974 Y60.586
G1 F2400 X84.024 Y52.535 E498.04094
G0 F10500 X84.024 Y51.652
G1 F2400 X75.974 Y59.702 E498.38000
G0 F10500 X75.974 Y58.818
G1 F2400 X84.024 Y50.768 E498.71907
G0 F10500 X84.024 Y49.884
G1 F2400 X75.974 Y57.934 E499.05814
G0 F10500 X75.974 Y57.050
G1 F2400 X84.024 Y49.000 E499.39720
G0 F10500 X84.024 Y48.116
G1 F2400 X75.974 Y56.166 E499.73627
G0 F10500 X75.974 Y55.283
G1 F2400 X83.805 Y47.451 E500.06613
G0 F10500 X82.921 Y47.451
G1 F2400 X75.974 Y54.399 E500.35876
G0 F10500 X75.974 Y53.515
G1 F2400 X82.037 Y47.451 E500.61416
G0 F10500 X81.153 Y47.451
G1 F2400 X75.974 Y52.631 E500.83232
G0 F10500 X75.974 Y51.747
G1 F2400 X80.270 Y47.451 E501.01327
G0 F10500 X79.386 Y47.451
G1 F2400 X75.974 Y50.863 E501.15698
G0 F10500 X75.974 Y49.979
G1 F2400 X78.502 Y47.451 E501.26346
G0 F10500 X77.618 Y47.451
G1 F2400 X75.974 Y49.095 E501.33270
G0 F10500 X75.974 Y48.211
G1 F2400 X76.734 Y47.451 E501.36472
G0 F10500 X75.710 Y62.735
G0 X73.817 Y63.626
G1 F2400 X65.626 Y71.818 E501.70974
G0 F10500 X66.642 Y69.918
G1 F2400 X71.917 Y64.642 E501.93195
G0 F10500 X64.734 Y73.710
G0 X59.935 Y73.973
G1 F2400 X51.884 Y82.024 E502.27106
G0 F10500 X51.000 Y82.024
G1 F2400 X59.051 Y73.973 E502.61016
G0 F10500 X58.167 Y73.973
G1 F2400 X50.116 Y82.024 E502.94927
G0 F10500 X49.452 Y81.805
G1 F2400 X57.283 Y73.973 E503.27914
G0 F10500 X56.399 Y73.973
G1 F2400 X49.452 Y80.921 E503.57176
G0 F10500 X49.452 Y80.037
G1 F2400 X55.515 Y73.973 E503.82716
G0 F10500 X54.631 Y73.973
G1 F2400 X49.452 Y79.153 E504.04532
G0 F10500 X49.452 Y78.269
G1 F2400 X53.747 Y73.973 E504.22625
G0 F10500 X52.864 Y73.973
G1 F2400 X49.452 Y77.385 E504.36996
G0 F10500 X49.452 Y76.501
G1 F2400 X51.980 Y73.973 E504.47644
G0 F10500 X51.096 Y73.973
G1 F2400 X49.452 Y75.617 E504.54569
G0 F10500 X49.452 Y74.734
G1 F2400 X50.212 Y73.973 E504.57772
G0 F10500 X109.336 Y82.025
G1 F2400 X110.546 Y80.814 E504.62870
G0 F10500 X110.546 Y81.698
G1 F2400 X110.220 Y82.025 E504.64246
;LAYER:6
G0 F10500 X110.723 Y82.200 Z2.705
;TYPE:WALL-INNER
G1 F2100 X95.200 Y82.200 E505.10478
G1 X94.634 Y84.064 E505.16280
G1 X93.170 Y86.802 E505.25528
G1 X91.200 Y89.200 E505.34771
G1 X88.802 Y91.170 E505.44014
G1 X86.063 Y92.634 E505.53264
G1 X84.200 Y93.199 E505.59062
G1 X84.200 Y108.723 E506.05297
G1 X75.800 Y108.723 E506.30316
G1 X75.800 Y93.200 E506.76548
G1 X73.936 Y92.634 E506.82350
G1 X71.198 Y91.170 E506.91597
G1 X68.800 Y89.200 E507.00840
G1 X66.830 Y86.802 E507.10084
G1 X65.366 Y84.063 E507.19333
G1 X64.801 Y82.200 E507.25132
G1 X49.277 Y82.200 E507.71367
G1 X49.277 Y73.800 E507.96385
G1 X64.800 Y73.800 E508.42618
G1 X65.366 Y71.936 E508.48420
G1 X66.830 Y69.198 E508.57667
G1 X68.800 Y66.800 E508.66910
G1 X71.198 Y64.830 E508.76153
G1 X73.937 Y63.366 E508.85403
G1 X75.800 Y62.801 E508.91201
G1 X75.800 Y47.277 E509.37437
G1 X84.200 Y47.277 E509.62455
G1 X84.200 Y62.800 E510.08688
G1 X86.064 Y63.366 E510.14490
G1 X88.802 Y64.830 E510.23737
G1 X91.200 Y66.800 E510.32980
G1 X93.170 Y69.198 E510.42223
G1 X94.634 Y71.937 E510.51473
G1 X95.199 Y73.800 E510.57271
G1 X110.723 Y73.800 E511.03507
G1 X110.723 Y82.200 E511.28525
G0 F10500 X111.223 Y82.700
;TYPE:WALL-OUTER
G1 F1800 X95.571 Y82.700 E511.75142
G1 X95.099 Y84.255 E511.79982
G1 X93.589 Y87.078 E511.89517
G1 X91.555 Y89.555 E511.99063
G1 X89.078 Y91.589 E512.08609
G1 X86.254 Y93.099 E512.18146
G1 X84.700 Y93.570 E512.22983
G1 X84.700 Y109.223 E512.69603
G1 X75.300 Y109.223 E512.97599
G1 X75.300 Y93.571 E513.44216
G1 X73.745 Y93.099 E513.49056
G1 X70.922 Y91.589 E513.58591
G1 X68.445 Y89.555 E513.68137
G1 X66.411 Y87.078 E513.77683
G1 X64.901 Y84.254 E513.87220
G1 X64.430 Y82.700 E513.92057
G1 X48.777 Y82.700 E514.38677
G1 X48.777 Y73.300 E514.66673
G1 X64.429 Y73.300 E515.13290
G1 X64.901 Y71.745 E515.18130
G1 X66.411 Y68.922 E515.27665
G1 X68.445 Y66.445 E515.37211
G1 X70.922 Y64.411 E515.46757
G1 X73.746 Y62.901 E515.56294
G1 X75.300 Y62.430 E515.61131
G1 X75.300 Y46.777 E516.07751
G1 X84.700 Y46.777 E516.35747
G1 X84.700 Y62.429 E516.82364
G1 X86.255 Y62.901 E516.87204
G1 X89.078 Y64.411 E516.96739
G1 X91.555 Y66.445 E517.06285
G1 X93.589 Y68.922 E517.15831
G1 X95.099 Y71.746 E517.25368
G1 X95.570 Y73.300 E517.30205
G1 X111.223 Y73.300 E517.76825
G1 X111.223 Y82.700 E518.04821
G0 F10500 X110.547 Y81.822
;TYPE:FILL
G1 F2400 X102.700 Y73.974 E518.37875
G0 F10500 X101.816 Y73.974
G1 F2400 X109.866 Y82.025 E518.71783
G0 F10500 X108.982 Y82.025
G1 F2400 X100.932 Y73.974 E519.05692
G0 F10500 X100.048 Y73.974
G1 F2400 X108.098 Y82.025 E519.39601
G0 F10500 X107.215 Y82.025
G1 F2400 X99.164 Y73.974 E519.73512
G0 F10500 X98.280 Y73.974
G1 F2400 X106.331 Y82.025 E520.07423
G0 F10500 X105.447 Y82.025
G1 F2400 X97.396 Y73.974 E520.41334
G0 F10500 X96.513 Y73.974
G1 F2400 X104.563 Y82.025 E520.75242
G0 F10500 X103.679 Y82.025
G1 F2400 X95.629 Y73.974 E521.09151
G0 F10500 X94.825 Y73.170
G1 F2400 X84.827 Y63.172 E521.51263
G0 F10500 X84.024 Y62.370
G1 F2400 X75.974 Y54.319 E521.85171
G0 F10500 X75.974 Y53.436
G1 F2400 X84.024 Y61.486 E522.19078
G0 F10500 X84.024 Y60.602
G1 F2400 X75.974 Y52.552 E522.52985
G0 F10500 X75.974 Y51.668
G1 F2400 X84.024 Y59.718 E522.86891
G0 F10500 X84.024 Y58.834
G1 F2400 X75.974 Y50.784 E523.20798
G0 F10500 X75.974 Y49.900
G1 F2400 X84.024 Y57.950 E523.54705
G0 F10500 X84.024 Y57.067
G1 F2400 X75.974 Y49.016 E523.88613
G0 F10500 X75.974 Y48.132
G1 F2400 X84.024 Y56.183 E524.22522
G0 F10500 X84.024 Y55.299
G1 F2400 X76.178 Y47.452 E524.55572
G0 F10500 X77.061 Y47.452
G1 F2400 X84.024 Y54.415 E524.84900
G0 F10500 X84.024 Y53.531
G1 F2400 X77.945 Y47.452 E525.10505
G0 F10500 X78.829 Y47.452
G1 F2400 X84.024 Y52.647 E525.32386
G0 F10500 X84.024 Y51.763
G1 F2400 X79.713 Y47.452 E525.50544
G0 F10500 X75.974 Y55.203
G1 F2400 X102.795 Y82.025 E526.63516
G0 F10500 X101.911 Y82.025
G1 F2400 X75.974 Y56.087 E527.72765
G0 F10500 X75.974 Y56.971
G1 F2400 X101.027 Y82.025 E528.78291
G0 F10500 X100.143 Y82.025
G1 F2400 X75.974 Y57.855 E529.80093
G0 F10500 X75.974 Y58.739
G1 F2400 X99.260 Y82.025 E530.78174
G0 F10500 X98.376 Y82.025
G1 F2400 X75.974 Y59.623 E531.72531
G0 F10500 X75.974 Y60.507
G1 F2400 X97.492 Y82.025 E532.63165
G0 F10500 X96.608 Y82.025
G1 F2400 X75.974 Y61.391 E533.50076
G0 F10500 X75.974 Y62.274
G1 F2400 X95.724 Y82.025 E534.33265
G0 F10500 X95.016 Y82.201
G1 F2400 X75.799 Y62.983 E535.14209
G0 F10500 X75.120 Y63.189
G1 F2400 X94.810 Y82.879 E535.97143
G0 F10500 X94.605 Y83.557
G1 F2400 X74.442 Y63.394 E536.82070
G0 F10500 X73.800 Y63.636
G1 F2400 X94.364 Y84.200 E537.68686
G0 F10500 X94.055 Y84.775
G1 F2400 X73.224 Y63.944 E538.56426
G0 F10500 X72.648 Y64.252
G1 F2400 X93.747 Y85.351 E539.45295
G0 F10500 X93.439 Y85.927
G1 F2400 X72.072 Y64.560 E540.35293
G0 F10500 X71.496 Y64.867
G1 F2400 X93.131 Y86.503 E541.26422
G0 F10500 X92.763 Y87.019
G1 F2400 X70.980 Y65.235 E542.18174
G0 F10500 X70.495 Y65.634
G1 F2400 X92.365 Y87.505 E543.10293
G0 F10500 X91.967 Y87.990
G1 F2400 X70.009 Y66.033 E544.02778
G0 F10500 X69.524 Y66.431
G1 F2400 X91.568 Y88.475 E544.95627
G0 F10500 X91.169 Y88.960
G1 F2400 X69.039 Y66.830 E545.88839
G0 F10500 X68.619 Y67.294
G1 F2400 X90.704 Y89.379 E546.81861
G0 F10500 X90.219 Y89.777
G1 F2400 X68.220 Y67.779 E547.74519
G0 F10500 X67.822 Y68.264
G1 F2400 X89.733 Y90.175 E548.66808
G0 F10500 X89.248 Y90.574
G1 F2400 X67.423 Y68.749 E549.58735
G0 F10500 X67.024 Y69.234
G1 F2400 X88.763 Y90.973 E550.50300
G0 F10500 X88.198 Y91.293
G1 F2400 X66.704 Y69.799 E551.40833
G0 F10500 X66.397 Y70.375
G1 F2400 X87.622 Y91.600 E552.30233
G0 F10500 X87.046 Y91.909
G1 F2400 X66.089 Y70.951 E553.18506
G0 F10500 X65.781 Y71.527
G1 F2400 X86.471 Y92.217 E554.05652
G0 F10500 X85.877 Y92.507
G1 F2400 X65.491 Y72.121 E554.91518
G0 F10500 X65.285 Y72.798
G1 F2400 X85.199 Y92.713 E555.75398
G0 F10500 X84.521 Y92.918
G1 F2400 X65.079 Y73.476 E556.57288
G0 F10500 X64.693 Y73.974
G1 F2400 X84.025 Y93.306 E557.38715
G0 F10500 X84.025 Y94.190
G1 F2400 X63.809 Y73.974 E558.23865
G0 F10500 X62.925 Y73.974
G1 F2400 X84.025 Y95.074 E559.12738
G0 F10500 X84.025 Y95.958
G1 F2400 X62.041 Y73.974 E560.05335
G0 F10500 X61.157 Y73.974
G1 F2400 X84.025 Y96.842 E561.01655
G0 F10500 X84.025 Y97.726
G1 F2400 X60.273 Y73.974 E562.01698
G0 F10500 X59.389 Y73.974
G1 F2400 X84.025 Y98.610 E563.05465
G0 F10500 X84.025 Y99.494
G1 F2400 X58.506 Y73.974 E564.12954
G0 F10500 X57.622 Y73.974
G1 F2400 X84.025 Y100.378 E565.24165
G0 F10500 X84.025 Y101.261
G1 F2400 X75.975 Y93.211 E565.58072
G0 F10500 X75.771 Y93.007
G1 F2400 X64.991 Y82.228 E566.03475
G0 F10500 X64.787 Y82.023
G1 F2400 X56.738 Y73.974 E566.37378
G0 F10500 X55.854 Y73.974
G1 F2400 X63.903 Y82.023 E566.71280
G0 F10500 X63.019 Y82.023
G1 F2400 X54.970 Y73.974 E567.05183
G0 F10500 X54.086 Y73.974
G1 F2400 X62.135 Y82.023 E567.39085
G0 F10500 X61.251 Y82.023
G1 F2400 X53.202 Y73.974 E567.72988
G0 F10500 X52.318 Y73.974
G1 F2400 X60.367 Y82.023 E568.06890
G0 F10500 X64.735 Y82.290
G0 X65.376 Y83.496
G1 F2400 X74.502 Y92.623 E568.45331
G0 F10500 X72.851 Y91.855
G1 F2400 X66.144 Y85.148 E568.73581
G0 F10500 X67.718 Y87.606
G1 F2400 X70.391 Y90.279 E568.84840
G0 F10500 X75.710 Y93.266
G0 X75.975 Y94.095
G1 F2400 X84.025 Y102.145 E569.18746
G0 F10500 X84.025 Y103.029
G1 F2400 X75.975 Y94.979 E569.52653
G0 F10500 X75.975 Y95.863
G1 F2400 X84.025 Y103.913 E569.86559
G0 F10500 X84.025 Y104.797
G1 F2400 X75.975 Y96.747 E570.20466
G0 F10500 X75.975 Y97.630
G1 F2400 X84.025 Y105.681 E570.54375
G0 F10500 X84.025 Y106.565
G1 F2400 X75.975 Y98.514 E570.88284
G0 F10500 X75.975 Y99.398
G1 F2400 X84.025 Y107.449 E571.22192
G0 F10500 X84.025 Y108.333
G1 F2400 X75.975 Y100.282 E571.56101
G0 F10500 X75.975 Y101.166
G1 F2400 X83.355 Y108.547 E571.87188
G0 F10500 X82.471 Y108.547
G1 F2400 X75.975 Y102.050 E572.14551
G0 F10500 X75.975 Y102.934
G1 F2400 X81.588 Y108.547 E572.38193
G0 F10500 X80.704 Y108.547
G1 F2400 X75.975 Y103.818 E572.58112
G0 F10500 X75.975 Y104.702
G1 F2400 X79.820 Y108.547 E572.74307
G0 F10500 X78.936 Y108.547
G1 F2400 X75.975 Y105.585 E572.86781
G0 F10500 X75.975 Y106.469
G1 F2400 X78.052 Y108.547 E572.95531
G0 F10500 X77.168 Y108.547
G1 F2400 X75.975 Y107.353 E573.00558
G0 F10500 X75.975 Y108.237
G1 F2400 X76.284 Y108.547 E573.01862
G0 F10500 X75.710 Y93.266
G0 X64.735 Y82.290
G0 X59.483 Y82.023
G1 F2400 X51.434 Y73.974 E573.35764
G0 F10500 X50.551 Y73.974
G1 F2400 X58.600 Y82.023 E573.69667
G0 F10500 X57.716 Y82.023
G1 F2400 X49.667 Y73.974 E574.03569
G0 F10500 X49.452 Y74.643
G1 F2400 X56.832 Y82.023 E574.34654
G0 F10500 X55.948 Y82.023
G1 F2400 X49.452 Y75.527 E574.62015
G0 F10500 X49.452 Y76.411
G1 F2400 X55.064 Y82.023 E574.85653
G0 F10500 X54.180 Y82.023
G1 F2400 X49.452 Y77.295 E575.05567
G0 F10500 X49.452 Y78.179
G1 F2400 X53.296 Y82.023 E575.21758
G0 F10500 X52.412 Y82.023
G1 F2400 X49.452 Y79.063 E575.34226
G0 F10500 X49.452 Y79.946
G1 F2400 X51.528 Y82.023 E575.42972
G0 F10500 X50.645 Y82.023
G1 F2400 X49.452 Y80.830 E575.47997
G0 F10500 X49.452 Y81.714
G1 F2400 X49.761 Y82.023 E575.49298
G0 F10500 X86.146 Y63.607
G1 F2400 X94.390 Y71.851 E575.84022
G0 F10500 X93.374 Y69.952
G1 F2400 X88.046 Y64.623 E576.06466
G0 F10500 X84.290 Y62.734
G0 X84.024 Y50.879
G1 F2400 X80.597 Y47.452 E576.20900
G0 F10500 X81.481 Y47.452
G1 F2400 X84.024 Y49.995 E576.31611
G0 F10500 X84.024 Y49.112
G1 F2400 X82.365 Y47.452 E576.38601
G0 F10500 X83.249 Y47.452
G1 F2400 X84.024 Y48.228 E576.41868
G0 F10500 X84.290 Y62.734
G0 X95.265 Y73.710
G0 X103.584 Y73.974
G1 F2400 X110.547 Y80.938 E576.71198
G0 F10500 X110.547 Y80.054
G1 F2400 X104.467 Y73.974 E576.96807
G0 F10500 X105.351 Y73.974
G1 F2400 X110.547 Y79.170 E577.18692
G0 F10500 X110.547 Y78.286
G1 F2400 X106.235 Y73.974 E577.36855
G0 F10500 X107.119 Y73.974
G1 F2400 X110.547 Y77.402 E577.51293
G0 F10500 X110.547 Y76.518
G1 F2400 X108.003 Y73.974 E577.62009
G0 F10500 X108.887 Y73.974
G1 F2400 X110.547 Y75.634 E577.69001
G0 F10500 X110.547 Y74.751
G1 F2400 X109.771 Y73.974 E577.72271
;LAYER:7
G0 F10500 X110.723 Y73.800 Z3.085
;TYPE:WALL-INNER
G1 F2100 X110.723 Y82.200 E577.97289
G1 X95.200 Y82.200 E578.43522
G1 X94.634 Y84.064 E578.49324
G1 X93.172 Y86.798 E578.58558
G1 X91.200 Y89.200 E578.67814
G1 X88.798 Y91.172 E578.77070
G1 X86.063 Y92.634 E578.86307
G1 X84.200 Y93.199 E578.92105
G1 X84.200 Y108.723 E579.38340
G1 X75.800 Y108.723 E579.63359
G1 X75.800 Y93.200 E580.09591
G1 X73.936 Y92.634 E580.15393
G1 X71.202 Y91.172 E580.24627
G1 X68.800 Y89.200 E580.33883
G1 X66.828 Y86.798 E580.43139
G1 X65.366 Y84.063 E580.52376
G1 X64.801 Y82.200 E580.58174
G1 X49.277 Y82.200 E581.04410
G1 X49.277 Y73.800 E581.29428
G1 X64.800 Y73.800 E581.75660
G1 X65.366 Y71.936 E581.81462
G1 X66.828 Y69.202 E581.90696
G1 X68.800 Y66.800 E581.99952
G1 X71.202 Y64.828 E582.09208
G1 X73.937 Y63.366 E582.18445
G1 X75.800 Y62.801 E582.24243
G1 X75.800 Y47.277 E582.70479
G1 X84.200 Y47.277 E582.95497
G1 X84.200 Y62.800 E583.41730
G1 X86.064 Y63.366 E583.47532
G1 X88.798 Y64.828 E583.56765
G1 X91.200 Y66.800 E583.66022
G1 X93.172 Y69.202 E583.75278
G1 X94.634 Y71.937 E583.84514
G1 X95.199 Y73.800 E583.90312
G1 X110.723 Y73.800 E584.36548
G0 F10500 X111.223 Y73.300
;TYPE:WALL-OUTER
G1 F1800 X111.223 Y82.700 E584.64544
G1 X95.571 Y82.700 E585.11161
G1 X95.099 Y84.255 E585.16001
G1 X93.589 Y87.078 E585.25536
G1 X91.555 Y89.555 E585.35082
G1 X89.078 Y91.589 E585.44628
G1 X86.254 Y93.099 E585.54166
G1 X84.700 Y93.570 E585.59002
G1 X84.700 Y109.223 E586.05622
G1 X75.300 Y109.223 E586.33618
G1 X75.300 Y93.571 E586.80235
G1 X73.745 Y93.099 E586.85075
G1 X70.922 Y91.589 E586.94610
G1 X68.445 Y89.555 E587.04156
G1 X66.411 Y87.078 E587.13702
G1 X64.901 Y84.254 E587.23240
G1 X64.430 Y82.700 E587.28076
G1 X48.777 Y82.700 E587.74696
G1 X48.777 Y73.300 E588.02692
G1 X64.429 Y73.300 E588.49309
G1 X64.901 Y71.745 E588.54149
G1 X66.411 Y68.922 E588.63684
G1 X68.445 Y66.445 E588.73230
G1 X70.922 Y64.411 E588.82776
G1 X73.746 Y62.901 E588.92314
G1 X75.300 Y62.430 E588.97150
G1 X75.300 Y46.777 E589.43770
G1 X84.700 Y46.777 E589.71766
G1 X84.700 Y62.429 E590.18383
G1 X86.255 Y62.901 E590.23223
G1 X89.078 Y64.411 E590.32758
G1 X91.555 Y66.445 E590.42304
G1 X93.589 Y68.922 E590.51850
G1 X95.099 Y71.746 E590.61388
G1 X95.570 Y73.300 E590.66224
G1 X111.223 Y73.300 E591.12844
G0 F10500 X110.315 Y73.974
;TYPE:FILL
G1 F2400 X102.265 Y82.025 E591.46753
G0 F10500 X103.149 Y82.025
G1 F2400 X110.546 Y74.627 E591.77911
G0 F10500 X110.546 Y75.511
G1 F2400 X104.033 Y82.025 E592.05346
G0 F10500 X104.916 Y82.025
G1 F2400 X110.546 Y76.395 E592.29060
G0 F10500 X110.546 Y77.278
G1 F2400 X105.800 Y82.025 E592.49052
G0 F10500 X106.684 Y82.025
G1 F2400 X110.546 Y78.162 E592.65321
G0 F10500 X110.546 Y79.046
G1 F2400 X107.568 Y82.025 E592.77866
G0 F10500 X108.452 Y82.025
G1 F2400 X110.546 Y79.930 E592.86688
G0 F10500 X109.431 Y73.974
G1 F2400 X101.381 Y82.025 E593.20597
G0 F10500 X100.497 Y82.025
G1 F2400 X108.547 Y73.974 E593.54506
G0 F10500 X107.664 Y73.974
G1 F2400 X99.613 Y82.025 E593.88417
G0 F10500 X98.729 Y82.025
G1 F2400 X106.780 Y73.974 E594.22328
G0 F10500 X105.896 Y73.974
G1 F2400 X97.845 Y82.025 E594.56238
G0 F10500 X96.962 Y82.025
G1 F2400 X105.012 Y73.974 E594.90147
G0 F10500 X104.128 Y73.974
G1 F2400 X96.078 Y82.025 E595.24056
G0 F10500 X95.194 Y82.025
G1 F2400 X103.244 Y73.974 E595.57965
G0 F10500 X102.360 Y73.974
G1 F2400 X75.975 Y100.360 E596.69101
G0 F10500 X75.975 Y101.244
G1 F2400 X84.024 Y93.194 E597.03005
G0 F10500 X84.203 Y93.015
G1 F2400 X95.015 Y82.203 E597.48545
G0 F10500 X94.630 Y83.472
G1 F2400 X85.472 Y92.630 E597.87119
G0 F10500 X87.112 Y91.875
G1 F2400 X93.875 Y85.111 E598.15607
G0 F10500 X92.355 Y87.515
G1 F2400 X89.514 Y90.356 E598.27573
G0 F10500 X84.290 Y93.265
G0 X84.024 Y94.078
G1 F2400 X75.975 Y102.128 E598.61478
G0 F10500 X75.975 Y103.012
G1 F2400 X84.024 Y94.962 E598.95382
G0 F10500 X84.024 Y95.846
G1 F2400 X75.975 Y103.895 E599.29285
G0 F10500 X75.975 Y104.779
G1 F2400 X84.024 Y96.730 E599.63187
G0 F10500 X84.024 Y97.613
G1 F2400 X75.975 Y105.663 E599.97092
G0 F10500 X75.975 Y106.547
G1 F2400 X84.024 Y98.497 E600.30996
G0 F10500 X84.024 Y99.381
G1 F2400 X75.975 Y107.431 E600.64901
G0 F10500 X75.975 Y108.315
G1 F2400 X84.024 Y100.265 E600.98805
G0 F10500 X84.024 Y101.149
G1 F2400 X76.627 Y108.547 E601.29963
G0 F10500 X77.510 Y108.547
G1 F2400 X84.024 Y102.033 E601.57401
G0 F10500 X84.024 Y102.917
G1 F2400 X78.394 Y108.547 E601.81114
G0 F10500 X79.278 Y108.547
G1 F2400 X84.024 Y103.801 E602.01104
G0 F10500 X84.024 Y104.685
G1 F2400 X80.162 Y108.547 E602.17371
G0 F10500 X81.046 Y108.547
G1 F2400 X84.024 Y105.568 E602.29917
G0 F10500 X84.024 Y106.452
G1 F2400 X81.930 Y108.547 E602.38739
G0 F10500 X82.814 Y108.547
G1 F2400 X84.024 Y107.336 E602.43837
G0 F10500 X84.024 Y108.220
G1 F2400 X83.698 Y108.547 E602.45212
G0 F10500 X75.975 Y99.476
G1 F2400 X101.476 Y73.974 E603.52625
G0 F10500 X100.593 Y73.974
G1 F2400 X75.975 Y98.592 E604.56316
G0 F10500 X75.975 Y97.708
G1 F2400 X99.709 Y73.974 E605.56284
G0 F10500 X98.825 Y73.974
G1 F2400 X75.975 Y96.824 E606.52528
G0 F10500 X75.975 Y95.940
G1 F2400 X97.941 Y73.974 E607.45049
G0 F10500 X97.057 Y73.974
G1 F2400 X75.975 Y95.057 E608.33849
G0 F10500 X75.975 Y94.173
G1 F2400 X96.173 Y73.974 E609.18925
G0 F10500 X95.289 Y73.974
G1 F2400 X75.975 Y93.289 E610.00278
G0 F10500 X75.464 Y92.915
G1 F2400 X94.914 Y73.466 E610.82199
G0 F10500 X94.708 Y72.788
G1 F2400 X74.786 Y92.710 E611.66111
G0 F10500 X74.108 Y92.504
G1 F2400 X94.502 Y72.110 E612.52010
G0 F10500 X94.210 Y71.518
G1 F2400 X73.516 Y92.212 E613.39174
G0 F10500 X72.940 Y91.904
G1 F2400 X93.903 Y70.941 E614.27470
G0 F10500 X93.594 Y70.366
G1 F2400 X72.364 Y91.596 E615.16891
G0 F10500 X71.789 Y91.288
G1 F2400 X93.287 Y69.790 E616.07440
G0 F10500 X92.965 Y69.227
G1 F2400 X71.226 Y90.966 E616.99005
G0 F10500 X70.741 Y90.567
G1 F2400 X92.566 Y68.742 E617.90932
G0 F10500 X92.167 Y68.257
G1 F2400 X70.256 Y90.168 E618.83222
G0 F10500 X69.770 Y89.770
G1 F2400 X91.769 Y67.771 E619.75882
G0 F10500 X91.370 Y67.286
G1 F2400 X69.285 Y89.371 E620.68904
G0 F10500 X68.823 Y88.950
G1 F2400 X90.950 Y66.823 E621.62103
G0 F10500 X90.465 Y66.424
G1 F2400 X68.424 Y88.465 E622.54940
G0 F10500 X68.026 Y87.979
G1 F2400 X89.980 Y66.026 E623.47408
G0 F10500 X89.494 Y65.627
G1 F2400 X67.627 Y87.494 E624.39512
G0 F10500 X67.228 Y87.009
G1 F2400 X89.009 Y65.228 E625.31253
G0 F10500 X88.492 Y64.862
G1 F2400 X66.862 Y86.491 E626.22357
G0 F10500 X66.555 Y85.915
G1 F2400 X87.916 Y64.554 E627.12330
G0 F10500 X87.340 Y64.246
G1 F2400 X66.246 Y85.340 E628.01178
G0 F10500 X65.939 Y84.763
G1 F2400 X86.764 Y63.938 E628.88893
G0 F10500 X86.188 Y63.630
G1 F2400 X65.630 Y84.188 E629.75483
G0 F10500 X65.391 Y83.543
G1 F2400 X85.545 Y63.390 E630.60370
G0 F10500 X84.866 Y63.184
G1 F2400 X65.186 Y82.865 E631.43264
G0 F10500 X64.980 Y82.187
G1 F2400 X84.188 Y62.978 E632.24171
G0 F10500 X84.024 Y62.258
G1 F2400 X64.259 Y82.024 E633.07423
G0 F10500 X63.375 Y82.024
G1 F2400 X84.024 Y61.374 E633.94399
G0 F10500 X84.024 Y60.490
G1 F2400 X62.491 Y82.024 E634.85098
G0 F10500 X61.607 Y82.024
G1 F2400 X84.024 Y59.606 E635.79521
G0 F10500 X84.024 Y58.723
G1 F2400 X60.723 Y82.024 E636.77665
G0 F10500 X59.839 Y82.024
G1 F2400 X84.024 Y57.839 E637.79532
G0 F10500 X84.024 Y56.955
G1 F2400 X58.955 Y82.024 E638.85123
G0 F10500 X58.071 Y82.024
G1 F2400 X84.024 Y56.071 E639.94437
G0 F10500 X84.024 Y55.187
G1 F2400 X57.187 Y82.024 E641.07475
G0 F10500 X56.304 Y82.024
G1 F2400 X64.354 Y73.973 E641.41383
G0 F10500 X63.470 Y73.973
G1 F2400 X55.420 Y82.024 E641.75292
G0 F10500 X54.536 Y82.024
G1 F2400 X62.586 Y73.973 E642.09201
G0 F10500 X61.702 Y73.973
G1 F2400 X53.652 Y82.024 E642.43110
G0 F10500 X52.768 Y82.024
G1 F2400 X60.818 Y73.973 E642.77018
G0 F10500 X64.734 Y73.710
G0 X65.179 Y73.148
G1 F2400 X75.147 Y63.180 E643.19004
G0 F10500 X75.974 Y62.354
G1 F2400 X84.024 Y54.303 E643.52912
G0 F10500 X84.024 Y53.419
G1 F2400 X75.974 Y61.470 E643.86821
G0 F10500 X75.974 Y60.586
G1 F2400 X84.024 Y52.535 E644.20730
G0 F10500 X84.024 Y51.652
G1 F2400 X75.974 Y59.702 E644.54637
G0 F10500 X75.974 Y58.818
G1 F2400 X84.024 Y50.768 E644.88543
G0 F10500 X84.024 Y49.884
G1 F2400 X75.974 Y57.934 E645.22450
G0 F10500 X75.974 Y57.050
G1 F2400 X84.024 Y49.000 E645.56357
G0 F10500 X84.024 Y48.116
G1 F2400 X75.974 Y56.166 E645.90263
G0 F10500 X75.974 Y55.283
G1 F2400 X83.805 Y47.451 E646.23250
G0 F10500 X82.921 Y47.451
G1 F2400 X75.974 Y54.399 E646.52512
G0 F10500 X75.974 Y53.515
G1 F2400 X82.037 Y47.451 E646.78052
G0 F10500 X81.153 Y47.451
G1 F2400 X75.974 Y52.631 E646.99868
G0 F10500 X75.974 Y51.747
G1 F2400 X80.270 Y47.451 E647.17963
G0 F10500 X79.386 Y47.451
G1 F2400 X75.974 Y50.863 E647.32334
G0 F10500 X75.974 Y49.979
G1 F2400 X78.502 Y47.451 E647.42982
G0 F10500 X77.618 Y47.451
G1 F2400 X75.974 Y49.095 E647.49907
G0 F10500 X75.974 Y48.211
G1 F2400 X76.734 Y47.451 E647.53108
G0 F10500 X75.710 Y62.735
G0 X73.816 Y63.627
G1 F2400 X65.626 Y71.818 E647.87606
G0 F10500 X66.642 Y69.918
G1 F2400 X71.917 Y64.642 E648.09827
G0 F10500 X64.734 Y73.710
G0 X59.935 Y73.973
G1 F2400 X51.884 Y82.024 E648.43738
G0 F10500 X51.000 Y82.024
G1 F2400 X59.051 Y73.973 E648.77648
G0 F10500 X58.167 Y73.973
G1 F2400 X50.116 Y82.024 E649.11559
G0 F10500 X49.452 Y81.805
G1 F2400 X57.283 Y73.973 E649.44546
G0 F10500 X56.399 Y73.973
G1 F2400 X49.452 Y80.921 E649.73808
G0 F10500 X49.452 Y80.037
G1 F2400 X55.515 Y73.973 E649.99348
G0 F10500 X54.631 Y73.973
G1 F2400 X49.452 Y79.153 E650.21164
G0 F10500 X49.452 Y78.269
G1 F2400 X53.747 Y73.973 E650.39257
G0 F10500 X52.864 Y73.973
G1 F2400 X49.452 Y77.385 E650.53628
G0 F10500 X49.452 Y76.501
G1 F2400 X51.980 Y73.973 E650.64276
G0 F10500 X51.096 Y73.973
G1 F2400 X49.452 Y75.617 E650.71201
G0 F10500 X49.452 Y74.734
G1 F2400 X50.212 Y73.973 E650.74404
G0 F10500 X109.336 Y82.025
G1 F2400 X110.546 Y80.814 E650.79502
G0 F10500 X110.546 Y81.698
G1 F2400 X110.220 Y82.025 E650.80878
;LAYER:8
G0 F10500 X110.723 Y82.200 Z3.465
;TYPE:WALL-INNER
G1 F2100 X95.200 Y82.200 E651.27110
G1 X94.634 Y84.064 E651.32912
G1 X93.172 Y86.798 E651.42146
G1 X91.200 Y89.200 E651.51402
G1 X88.798 Y91.172 E651.60658
G1 X86.064 Y92.634 E651.69892
G1 X84.200 Y93.199 E651.75693
G1 X84.200 Y108.723 E652.21929
G1 X75.800 Y108.723 E652.46947
G1 X75.800 Y93.200 E652.93180
G1 X73.936 Y92.634 E652.98982
G1 X71.202 Y91.172 E653.08216
G1 X68.800 Y89.200 E653.17472
G1 X66.828 Y86.798 E653.26728
G1 X65.366 Y84.064 E653.35962
G1 X64.801 Y82.200 E653.41763
G1 X49.277 Y82.200 E653.87998
G1 X49.277 Y73.800 E654.13017
G1 X64.800 Y73.800 E654.59249
G1 X65.366 Y71.936 E654.65051
G1 X66.828 Y69.202 E654.74285
G1 X68.800 Y66.800 E654.83541
G1 X71.202 Y64.828 E654.92797
G1 X73.936 Y63.366 E655.02031
G1 X75.800 Y62.801 E655.07832
G1 X75.800 Y47.277 E655.54068
G1 X84.200 Y47.277 E655.79086
G1 X84.200 Y62.800 E656.25319
G1 X86.064 Y63.366 E656.31121
G1 X88.798 Y64.828 E656.40354
G1 X91.200 Y66.800 E656.49611
G1 X93.172 Y69.202 E656.58867
G1 X94.634 Y71.936 E656.68101
G1 X95.199 Y73.800 E656.73902
G1 X110.723 Y73.800 E657.20137
G1 X110.723 Y82.200 E657.45155
G0 F10500 X111.223 Y82.700
;TYPE:WALL-OUTER
G1 F1800 X95.571 Y82.700 E657.91772
G1 X95.099 Y84.255 E657.96612
G1 X93.589 Y87.078 E658.06147
G1 X91.555 Y89.555 E658.15693
G1 X89.078 Y91.589 E658.25239
G1 X86.255 Y93.099 E658.34774
G1 X84.700 Y93.570 E658.39613
G1 X84.700 Y109.223 E658.86233
G1 X75.300 Y109.223 E659.14230
G1 X75.300 Y93.571 E659.60846
G1 X73.745 Y93.099 E659.65686
G1 X70.922 Y91.589 E659.75222
G1 X68.445 Y89.555 E659.84767
G1 X66.411 Y87.078 E659.94313
G1 X64.901 Y84.255 E660.03848
G1 X64.430 Y82.700 E660.08687
G1 X48.777 Y82.700 E660.55307
G1 X48.777 Y73.300 E660.83304
G1 X64.429 Y73.300 E661.29921
G1 X64.901 Y71.745 E661.34761
G1 X66.411 Y68.922 E661.44296
G1 X68.445 Y66.445 E661.53842
G1 X70.922 Y64.411 E661.63388
G1 X73.745 Y62.901 E661.72923
G1 X75.300 Y62.430 E661.77762
G1 X75.300 Y46.777 E662.24382
G1 X84.700 Y46.777 E662.52378
G1 X84.700 Y62.429 E662.98995
G1 X86.255 Y62.901 E663.03835
G1 X89.078 Y64.411 E663.13370
G1 X91.555 Y66.445 E663.22916
G1 X93.589 Y68.922 E663.32462
G1 X95.099 Y71.745 E663.41997
G1 X95.570 Y73.300 E663.46836
G1 X111.223 Y73.300 E663.93456
G1 X111.223 Y82.700 E664.21452
G0 F10500 X110.547 Y81.822
;TYPE:FILL
G1 F2400 X102.700 Y73.974 E664.54506
G0 F10500 X101.816 Y73.974
G1 F2400 X109.866 Y82.025 E664.88415
G0 F10500 X108.982 Y82.025
G1 F2400 X100.932 Y73.974 E665.22323
G0 F10500 X100.048 Y73.974
G1 F2400 X108.098 Y82.025 E665.56232
G0 F10500 X107.215 Y82.025
G1 F2400 X99.164 Y73.974 E665.90143
G0 F10500 X98.280 Y73.974
G1 F2400 X106.331 Y82.025 E666.24054
G0 F10500 X105.447 Y82.025
G1 F2400 X97.396 Y73.974 E666.57965
G0 F10500 X96.513 Y73.974
G1 F2400 X104.563 Y82.025 E666.91874
G0 F10500 X103.679 Y82.025
G1 F2400 X95.629 Y73.974 E667.25782
G0 F10500 X94.825 Y73.171
G1 F2400 X84.827 Y63.172 E667.67896
G0 F10500 X84.024 Y62.370
G1 F2400 X75.974 Y54.319 E668.01805
G0 F10500 X75.974 Y53.436
G1 F2400 X84.024 Y61.486 E668.35711
G0 F10500 X84.024 Y60.602
G1 F2400 X75.974 Y52.552 E668.69618
G0 F10500 X75.974 Y51.668
G1 F2400 X84.024 Y59.718 E669.03525
G0 F10500 X84.024 Y58.834
G1 F2400 X75.974 Y50.784 E669.37431
G0 F10500 X75.974 Y49.900
G1 F2400 X84.024 Y57.950 E669.71338
G0 F10500 X84.024 Y57.067
G1 F2400 X75.974 Y49.016 E670.05247
G0 F10500 X75.974 Y48.132
G1 F2400 X84.024 Y56.183 E670.39156
G0 F10500 X84.024 Y55.299
G1 F2400 X76.178 Y47.452 E670.72205
G0 F10500 X77.061 Y47.452
G1 F2400 X84.024 Y54.415 E671.01533
G0 F10500 X84.024 Y53.531
G1 F2400 X77.945 Y47.452 E671.27138
G0 F10500 X78.829 Y47.452
G1 F2400 X84.024 Y52.647 E671.49019
G0 F10500 X84.024 Y51.763
G1 F2400 X79.713 Y47.452 E671.67177
G0 F10500 X75.974 Y55.203
G1 F2400 X102.795 Y82.025 E672.80150
G0 F10500 X101.911 Y82.025
G1 F2400 X75.974 Y56.087 E673.89399
G0 F10500 X75.974 Y56.971
G1 F2400 X101.027 Y82.025 E674.94924
G0 F10500 X100.143 Y82.025
G1 F2400 X75.974 Y57.855 E675.96726
G0 F10500 X75.974 Y58.739
G1 F2400 X99.260 Y82.025 E676.94807
G0 F10500 X98.376 Y82.025
G1 F2400 X75.974 Y59.623 E677.89164
G0 F10500 X75.974 Y60.507
G1 F2400 X97.492 Y82.025 E678.79798
G0 F10500 X96.608 Y82.025
G1 F2400 X75.974 Y61.391 E679.66709
G0 F10500 X75.974 Y62.274
G1 F2400 X95.724 Y82.025 E680.49898
G0 F10500 X95.016 Y82.201
G1 F2400 X75.799 Y62.983 E681.30842
G0 F10500 X75.120 Y63.189
G1 F2400 X94.810 Y82.879 E682.13777
G0 F10500 X94.605 Y83.557
G1 F2400 X74.442 Y63.394 E682.98703
G0 F10500 X73.800 Y63.636
G1 F2400 X94.364 Y84.200 E683.85319
G0 F10500 X94.055 Y84.775
G1 F2400 X73.224 Y63.944 E684.73059
G0 F10500 X72.648 Y64.252
G1 F2400 X93.747 Y85.351 E685.61928
G0 F10500 X93.439 Y85.927
G1 F2400 X72.072 Y64.560 E686.51926
G0 F10500 X71.496 Y64.868
G1 F2400 X93.131 Y86.503 E687.43053
G0 F10500 X92.763 Y87.019
G1 F2400 X70.980 Y65.236 E688.34803
G0 F10500 X70.495 Y65.635
G1 F2400 X92.365 Y87.504 E689.26918
G0 F10500 X91.966 Y87.989
G1 F2400 X70.010 Y66.033 E690.19397
G0 F10500 X69.524 Y66.431
G1 F2400 X91.568 Y88.475 E691.12246
G0 F10500 X91.169 Y88.960
G1 F2400 X69.039 Y66.830 E692.05458
G0 F10500 X68.619 Y67.294
G1 F2400 X90.704 Y89.379 E692.98480
G0 F10500 X90.218 Y89.777
G1 F2400 X68.221 Y67.780 E693.91131
G0 F10500 X67.822 Y68.265
G1 F2400 X89.733 Y90.175 E694.83419
G0 F10500 X89.248 Y90.574
G1 F2400 X67.424 Y68.750 E695.75341
G0 F10500 X67.025 Y69.235
G1 F2400 X88.763 Y90.973 E696.66902
G0 F10500 X88.198 Y91.293
G1 F2400 X66.705 Y69.799 E697.57433
G0 F10500 X66.397 Y70.375
G1 F2400 X87.623 Y91.601 E698.46837
G0 F10500 X87.047 Y91.909
G1 F2400 X66.089 Y70.951 E699.35112
G0 F10500 X65.781 Y71.527
G1 F2400 X86.471 Y92.217 E700.22258
G0 F10500 X85.877 Y92.507
G1 F2400 X65.491 Y72.121 E701.08124
G0 F10500 X65.285 Y72.798
G1 F2400 X85.199 Y92.713 E701.92004
G0 F10500 X84.521 Y92.918
G1 F2400 X65.079 Y73.476 E702.73894
G0 F10500 X64.693 Y73.974
G1 F2400 X84.025 Y93.306 E703.55321
G0 F10500 X84.025 Y94.190
G1 F2400 X63.809 Y73.974 E704.40471
G0 F10500 X62.925 Y73.974
G1 F2400 X84.025 Y95.074 E705.29344
G0 F10500 X84.025 Y95.958
G1 F2400 X62.041 Y73.974 E706.21941
G0 F10500 X61.157 Y73.974
G1 F2400 X84.025 Y96.842 E707.18261
G0 F10500 X84.025 Y97.726
G1 F2400 X60.273 Y73.974 E708.18304
G0 F10500 X59.389 Y73.974
G1 F2400 X84.025 Y98.610 E709.22071
G0 F10500 X84.025 Y99.494
G1 F2400 X58.506 Y73.974 E710.29560
G0 F10500 X57.622 Y73.974
G1 F2400 X84.025 Y100.378 E711.40771
G0 F10500 X84.025 Y101.261
G1 F2400 X75.975 Y93.211 E711.74678
G0 F10500 X75.771 Y93.007
G1 F2400 X64.991 Y82.228 E712.20081
G0 F10500 X64.787 Y82.023
G1 F2400 X56.738 Y73.974 E712.53984
G0 F10500 X55.854 Y73.974
G1 F2400 X63.903 Y82.023 E712.87886
G0 F10500 X63.019 Y82.023
G1 F2400 X54.970 Y73.974 E713.21789
G0 F10500 X54.086 Y73.974
G1 F2400 X62.135 Y82.023 E713.55691
G0 F10500 X61.251 Y82.023
G1 F2400 X53.202 Y73.974 E713.89594
G0 F10500 X52.318 Y73.974
G1 F2400 X60.367 Y82.023 E714.23496
G0 F10500 X64.735 Y82.290
G0 X65.375 Y83.495
G1 F2400 X74.502 Y92.623 E714.61941
G0 F10500 X72.851 Y91.855
G1 F2400 X66.142 Y85.146 E714.90199
G0 F10500 X67.721 Y87.609
G1 F2400 X70.389 Y90.277 E715.01437
G0 F10500 X75.710 Y93.266
G0 X75.975 Y94.095
G1 F2400 X84.025 Y102.145 E715.35344
G0 F10500 X84.025 Y103.029
G1 F2400 X75.975 Y94.979 E715.69250
G0 F10500 X75.975 Y95.863
G1 F2400 X84.025 Y103.913 E716.03157
G0 F10500 X84.025 Y104.797
G1 F2400 X75.975 Y96.747 E716.37064
G0 F10500 X75.975 Y97.630
G1 F2400 X84.025 Y105.681 E716.70972
G0 F10500 X84.025 Y106.565
G1 F2400 X75.975 Y98.514 E717.04881
G0 F10500 X75.975 Y99.398
G1 F2400 X84.025 Y107.449 E717.38790
G0 F10500 X84.025 Y108.333
G1 F2400 X75.975 Y100.282 E717.72699
G0 F10500 X75.975 Y101.166
G1 F2400 X83.355 Y108.547 E718.03785
G0 F10500 X82.471 Y108.547
G1 F2400 X75.975 Y102.050 E718.31149
G0 F10500 X75.975 Y102.934
G1 F2400 X81.588 Y108.547 E718.54791
G0 F10500 X80.704 Y108.547
G1 F2400 X75.975 Y103.818 E718.74709
G0 F10500 X75.975 Y104.702
G1 F2400 X79.820 Y108.547 E718.90904
G0 F10500 X78.936 Y108.547
G1 F2400 X75.975 Y105.585 E719.03378
G0 F10500 X75.975 Y106.469
G1 F2400 X78.052 Y108.547 E719.12129
G0 F10500 X77.168 Y108.547
G1 F2400 X75.975 Y107.353 E719.17156
G0 F10500 X75.975 Y108.237
G1 F2400 X76.284 Y108.547 E719.18459
G0 F10500 X75.710 Y93.266
G0 X64.735 Y82.290
G0 X59.483 Y82.023
G1 F2400 X51.434 Y73.974 E719.52362
G0 F10500 X50.551 Y73.974
G1 F2400 X58.600 Y82.023 E719.86264
G0 F10500 X57.716 Y82.023
G1 F2400 X49.667 Y73.974 E720.20167
G0 F10500 X49.452 Y74.643
G1 F2400 X56.832 Y82.023 E720.51251
G0 F10500 X55.948 Y82.023
G1 F2400 X49.452 Y75.527 E720.78612
G0 F10500 X49.452 Y76.411
G1 F2400 X55.064 Y82.023 E721.02250
G0 F10500 X54.180 Y82.023
G1 F2400 X49.452 Y77.295 E721.22165
G0 F10500 X49.452 Y78.179
G1 F2400 X53.296 Y82.023 E721.38356
G0 F10500 X52.412 Y82.023
G1 F2400 X49.452 Y79.063 E721.50823
G0 F10500 X49.452 Y79.946
G1 F2400 X51.528 Y82.023 E721.59569
G0 F10500 X50.645 Y82.023
G1 F2400 X49.452 Y80.830 E721.64594
G0 F10500 X49.452 Y81.714
G1 F2400 X49.761 Y82.023 E721.65896
G0 F10500 X86.146 Y63.607
G1 F2400 X94.391 Y71.853 E722.00626
G0 F10500 X93.374 Y69.952
G1 F2400 X88.047 Y64.625 E722.23063
G0 F10500 X84.290 Y62.734
G0 X84.024 Y50.879
G1 F2400 X80.597 Y47.452 E722.37498
G0 F10500 X81.481 Y47.452
G1 F2400 X84.024 Y49.995 E722.48209
G0 F10500 X84.024 Y49.112
G1 F2400 X82.365 Y47.452 E722.55199
G0 F10500 X83.249 Y47.452
G1 F2400 X84.024 Y48.228 E722.58465
G0 F10500 X84.290 Y62.734
G0 X95.265 Y73.710
G0 X103.584 Y73.974
G1 F2400 X110.547 Y80.938 E722.87795
G0 F10500 X110.547 Y80.054
G1 F2400 X104.467 Y73.974 E723.13404
G0 F10500 X105.351 Y73.974
G1 F2400 X110.547 Y79.170 E723.35290
G0 F10500 X110.547 Y78.286
G1 F2400 X106.235 Y73.974 E723.53452
G0 F10500 X107.119 Y73.974
G1 F2400 X110.547 Y77.402 E723.67891
G0 F10500 X110.547 Y76.518
G1 F2400 X108.003 Y73.974 E723.78606
G0 F10500 X108.887 Y73.974
G1 F2400 X110.547 Y75.634 E723.85598
G0 F10500 X110.547 Y74.751
G1 F2400 X109.771 Y73.974 E723.88869
;LAYER:9
G0 F10500 X110.723 Y73.800 Z3.845
;TYPE:WALL-INNER
G1 F2100 X110.723 Y82.200 E724.13887
G1 X95.199 Y82.200 E724.60123
G1 X94.634 Y84.063 E724.65921
G1 X93.172 Y86.798 E724.75157
G1 X91.200 Y89.200 E724.84413
G1 X88.798 Y91.172 E724.93669
G1 X86.064 Y92.634 E725.02903
G1 X84.200 Y93.200 E725.08705
G1 X84.200 Y108.723 E725.54938
G1 X75.800 Y108.723 E725.79956
G1 X75.800 Y93.199 E726.26192
G1 X73.937 Y92.634 E726.31990
G1 X71.202 Y91.172 E726.41226
G1 X68.800 Y89.200 E726.50483
G1 X66.828 Y86.798 E726.59739
G1 X65.366 Y84.064 E726.68973
G1 X64.800 Y82.200 E726.74774
G1 X49.277 Y82.200 E727.21007
G1 X49.277 Y73.800 E727.46025
G1 X64.801 Y73.800 E727.92261
G1 X65.366 Y71.937 E727.98059
G1 X66.828 Y69.202 E728.07296
G1 X68.800 Y66.800 E728.16552
G1 X71.202 Y64.828 E728.25808
G1 X73.936 Y63.366 E728.35042
G1 X75.800 Y62.800 E728.40844
G1 X75.800 Y47.277 E728.87076
G1 X84.200 Y47.277 E729.12094
G1 X84.200 Y62.801 E729.58330
G1 X86.063 Y63.366 E729.64128
G1 X88.798 Y64.828 E729.73365
G1 X91.200 Y66.800 E729.82621
G1 X93.172 Y69.202 E729.91877
G1 X94.634 Y71.936 E730.01111
G1 X95.200 Y73.800 E730.06913
G1 X110.723 Y73.800 E730.53146
G0 F10500 X111.223 Y73.300
;TYPE:WALL-OUTER
G1 F1800 X111.223 Y82.700 E730.81142
G1 X95.570 Y82.700 E731.27762
G1 X95.099 Y84.254 E731.32598
G1 X93.589 Y87.078 E731.42136
G1 X91.555 Y89.555 E731.51682
G1 X89.078 Y91.589 E731.61228
G1 X86.255 Y93.099 E731.70763
G1 X84.700 Y93.571 E731.75603
G1 X84.700 Y109.223 E732.22220
G1 X75.300 Y109.223 E732.50216
G1 X75.300 Y93.570 E732.96836
G1 X73.746 Y93.099 E733.01672
G1 X70.922 Y91.589 E733.11210
G1 X68.445 Y89.555 E733.20756
G1 X66.411 Y87.078 E733.30302
G1 X64.901 Y84.255 E733.39837
G1 X64.429 Y82.700 E733.44677
G1 X48.777 Y82.700 E733.91294
G1 X48.777 Y73.300 E734.19290
G1 X64.430 Y73.300 E734.65910
G1 X64.901 Y71.746 E734.70746
G1 X66.411 Y68.922 E734.80284
G1 X68.445 Y66.445 E734.89830
G1 X70.922 Y64.411 E734.99376
G1 X73.745 Y62.901 E735.08911
G1 X75.300 Y62.429 E735.13751
G1 X75.300 Y46.777 E735.60368
G1 X84.700 Y46.777 E735.88364
G1 X84.700 Y62.430 E736.34984
G1 X86.254 Y62.901 E736.39820
G1 X89.078 Y64.411 E736.49358
G1 X91.555 Y66.445 E736.58904
G1 X93.589 Y68.922 E736.68450
G1 X95.099 Y71.745 E736.77985
G1 X95.571 Y73.300 E736.82825
G1 X111.223 Y73.300 E737.29442
G0 F10500 X110.315 Y73.974
;TYPE:FILL
G1 F2400 X102.265 Y82.025 E737.63350
G0 F10500 X103.149 Y82.025
G1 F2400 X110.546 Y74.627 E737.94509
G0 F10500 X110.546 Y75.511
G1 F2400 X104.033 Y82.025 E738.21944
G0 F10500 X104.916 Y82.025
G1 F2400 X110.546 Y76.395 E738.45657
G0 F10500 X110.546 Y77.278
G1 F2400 X105.800 Y82.025 E738.65649
G0 F10500 X106.684 Y82.025
G1 F2400 X110.546 Y78.162 E738.81918
G0 F10500 X110.546 Y79.046
G1 F2400 X107.568 Y82.025 E738.94464
G0 F10500 X108.452 Y82.025
G1 F2400 X110.546 Y79.930 E739.03286
G0 F10500 X109.431 Y73.974
G1 F2400 X101.381 Y82.025 E739.37195
G0 F10500 X100.497 Y82.025
G1 F2400 X108.547 Y73.974 E739.71103
G0 F10500 X107.664 Y73.974
G1 F2400 X99.613 Y82.025 E740.05014
G0 F10500 X98.729 Y82.025
G1 F2400 X106.780 Y73.974 E740.38925
G0 F10500 X105.896 Y73.974
G1 F2400 X97.845 Y82.025 E740.72836
G0 F10500 X96.962 Y82.025
G1 F2400 X105.012 Y73.974 E741.06745
G0 F10500 X104.128 Y73.974
G1 F2400 X96.078 Y82.025 E741.40653
G0 F10500 X95.194 Y82.025
G1 F2400 X103.244 Y73.974 E741.74562
G0 F10500 X102.360 Y73.974
G1 F2400 X75.975 Y100.360 E742.85698
G0 F10500 X75.975 Y101.244
G1 F2400 X84.024 Y93.194 E743.19603
G0 F10500 X84.202 Y93.016
G1 F2400 X95.015 Y82.203 E743.65147
G0 F10500 X94.629 Y83.473
G1 F2400 X85.472 Y92.630 E744.03716
G0 F10500 X87.111 Y91.875
G1 F2400 X93.874 Y85.113 E744.32200
G0 F10500 X92.355 Y87.515
G1 F2400 X89.514 Y90.356 E744.44166
G0 F10500 X84.290 Y93.266
G0 X84.024 Y94.078
G1 F2400 X75.975 Y102.128 E744.78071
G0 F10500 X75.975 Y103.012
G1 F2400 X84.024 Y94.962 E745.11975
G0 F10500 X84.024 Y95.846
G1 F2400 X75.975 Y103.895 E745.45878
G0 F10500 X75.975 Y104.779
G1 F2400 X84.024 Y96.730 E745.79780
G0 F10500 X84.024 Y97.613
G1 F2400 X75.975 Y105.663 E746.13685
G0 F10500 X75.975 Y106.547
